HypnoCore/Renderer/Effects/Library/BundledLUTs/Panasonic/V-Log to V-709.cube
# Vlog_to_V709_forV35_ver100.cube by panasonic
LUT_3D_SIZE 33
0.015625 0.015625 0.015625
0.028320 0.011719 0.013184
0.040771 0.008057 0.010742
0.054688 0.003906 0.008301
0.072021 0.000000 0.004883
0.093750 0.000000 0.000977
0.120850 0.000000 0.000000
0.154053 0.000000 0.000000
0.193848 0.000000 0.000000
0.239746 0.000000 0.000000
0.291748 0.000000 0.000000
0.349365 0.000000 0.000000
0.411865 0.000000 0.000000
0.478271 0.000000 0.000000
0.547607 0.000000 0.000000
0.618652 0.000000 0.000000
0.690430 0.000000 0.000000
0.761475 0.000000 0.000000
0.830566 0.000000 0.000000
0.896729 0.000000 0.000000
0.958486 0.000000 0.000000
0.979243 0.000000 0.000000
1.000000 0.000000 0.000000
1.000000 0.000000 0.000000
1.000000 0.000000 0.000000
1.000000 0.000000 0.000000
1.000000 0.000000 0.000000
1.000000 0.000000 0.000000
1.000000 0.000000 0.000000
1.000000 0.000000 0.000000
1.000000 0.000000 0.000000
1.000000 0.000000 0.000000
1.000000 0.000000 0.000000
0.013184 0.029541 0.017822
0.026123 0.025879 0.015625
0.038574 0.022217 0.013184
0.052490 0.018066 0.010498
0.069580 0.012939 0.007324
0.091309 0.006592 0.003418
0.118652 0.000000 0.000000
0.151855 0.000000 0.000000
0.191406 0.000000 0.000000
0.237305 0.000000 0.000000
0.289551 0.000000 0.000000
0.346924 0.000000 0.000000
0.409424 0.000000 0.000000
0.475830 0.000000 0.000000
0.545166 0.000000 0.000000
0.616455 0.000000 0.000000
0.688232 0.000000 0.000000
0.759277 0.000000 0.000000
0.828369 0.000000 0.000000
0.894287 0.000000 0.000000
0.956288 0.000000 0.000000
0.978266 0.000000 0.000000
1.000000 0.000000 0.000000
1.000000 0.000000 0.000000
1.000000 0.000000 0.000000
1.000000 0.000000 0.000000
1.000000 0.000000 0.000000
1.000000 0.000000 0.000000
1.000000 0.000000 0.000000
1.000000 0.000000 0.000000
1.000000 0.000000 0.000000
1.000000 0.000000 0.000000
1.000000 0.000000 0.000000
0.010986 0.043213 0.020264
0.023926 0.039307 0.017822
0.036377 0.035645 0.015625
0.050293 0.031494 0.012939
0.067383 0.026367 0.009766
0.089111 0.020020 0.005615
0.116455 0.011963 0.000488
0.149658 0.002197 0.000000
0.189209 0.000000 0.000000
0.235352 0.000000 0.000000
0.287354 0.000000 0.000000
0.344971 0.000000 0.000000
0.407227 0.000000 0.000000
0.473633 0.000000 0.000000
0.542969 0.000000 0.000000
0.614258 0.000000 0.000000
0.686035 0.000000 0.000000
0.757080 0.000000 0.000000
0.826172 0.000000 0.000000
0.892090 0.000000 0.000000
0.954090 0.000000 0.000000
0.977045 0.000000 0.000000
1.000000 0.000000 0.000000
1.000000 0.000000 0.000000
1.000000 0.000000 0.000000
1.000000 0.000000 0.000000
1.000000 0.000000 0.000000
1.000000 0.000000 0.000000
1.000000 0.000000 0.000000
1.000000 0.000000 0.000000
1.000000 0.000000 0.000000
1.000000 0.000000 0.000000
1.000000 0.000000 0.000000
0.008545 0.058350 0.022949
0.021484 0.054688 0.020508
0.033936 0.051025 0.018066
0.047852 0.046875 0.015625
0.064941 0.041748 0.012451
0.086670 0.035400 0.008301
0.114014 0.027344 0.003174
0.147217 0.017334 0.000000
0.186768 0.005615 0.000000
0.232666 0.000000 0.000000
0.284912 0.000000 0.000000
0.342285 0.000000 0.000000
0.404785 0.000000 0.000000
0.471191 0.000000 0.000000
0.540527 0.000000 0.000000
0.611816 0.000000 0.000000
0.683594 0.000000 0.000000
0.754639 0.000000 0.000000
0.823730 0.000000 0.000000
0.889648 0.000000 0.000000
0.951648 0.000000 0.000000
0.975824 0.000000 0.000000
1.000000 0.000000 0.000000
1.000000 0.000000 0.000000
1.000000 0.000000 0.000000
1.000000 0.000000 0.000000
1.000000 0.000000 0.000000
1.000000 0.000000 0.000000
1.000000 0.000000 0.000000
1.000000 0.000000 0.000000
1.000000 0.000000 0.000000
1.000000 0.000000 0.000000
1.000000 0.000000 0.000000
0.005615 0.077148 0.026123
0.018555 0.073486 0.023682
0.030762 0.069824 0.021484
0.044678 0.065674 0.018799
0.062012 0.060547 0.015625
0.083740 0.054199 0.011475
0.110840 0.046143 0.006348
0.144287 0.036133 0.000244
0.183838 0.024414 0.000000
0.229736 0.010986 0.000000
0.281738 0.000000 0.000000
0.339355 0.000000 0.000000
0.401855 0.000000 0.000000
0.468262 0.000000 0.000000
0.537598 0.000000 0.000000
0.608643 0.000000 0.000000
0.680420 0.000000 0.000000
0.751465 0.000000 0.000000
0.820801 0.000000 0.000000
0.886719 0.000000 0.000000
0.948474 0.000000 0.000000
0.974359 0.000000 0.000000
1.000000 0.000000 0.000000
1.000000 0.000000 0.000000
1.000000 0.000000 0.000000
1.000000 0.000000 0.000000
1.000000 0.000000 0.000000
1.000000 0.000000 0.000000
1.000000 0.000000 0.000000
1.000000 0.000000 0.000000
1.000000 0.000000 0.000000
1.000000 0.000000 0.000000
1.000000 0.000000 0.000000
0.001709 0.101074 0.030273
0.014648 0.097168 0.027832
0.027100 0.093506 0.025391
0.041016 0.089355 0.022949
0.058105 0.084229 0.019531
0.079834 0.077881 0.015625
0.107178 0.069824 0.010498
0.140381 0.060059 0.004395
0.179932 0.048340 0.000000
0.225830 0.034668 0.000000
0.277832 0.019287 0.000000
0.335449 0.002197 0.000000
0.397949 0.000000 0.000000
0.464355 0.000000 0.000000
0.533691 0.000000 0.000000
0.604980 0.000000 0.000000
0.676758 0.000000 0.000000
0.747803 0.000000 0.000000
0.816895 0.000000 0.000000
0.882813 0.000000 0.000000
0.944811 0.000000 0.000000
0.972405 0.000000 0.000000
1.000000 0.000000 0.000000
1.000000 0.000000 0.000000
1.000000 0.000000 0.000000
1.000000 0.000000 0.000000
1.000000 0.000000 0.000000
1.000000 0.000000 0.000000
1.000000 0.000000 0.000000
1.000000 0.000000 0.000000
1.000000 0.000000 0.000000
1.000000 0.000000 0.000000
1.000000 0.000000 0.000000
0.000000 0.130615 0.035400
0.009766 0.126953 0.032959
0.022217 0.123291 0.030518
0.036133 0.119141 0.028076
0.053467 0.114014 0.024658
0.075195 0.107666 0.020752
0.102295 0.099609 0.015625
0.135498 0.089600 0.009521
0.175293 0.077881 0.001953
0.221191 0.064453 0.000000
0.273193 0.049072 0.000000
0.330811 0.031982 0.000000
0.393311 0.013428 0.000000
0.459717 0.000000 0.000000
0.529053 0.000000 0.000000
0.600098 0.000000 0.000000
0.671875 0.000000 0.000000
0.742920 0.000000 0.000000
0.812012 0.000000 0.000000
0.878174 0.000000 0.000000
0.939927 0.000000 0.000000
0.969963 0.000000 0.000000
0.998046 0.000000 0.000000
1.000000 0.000000 0.000000
1.000000 0.000000 0.000000
1.000000 0.000000 0.000000
1.000000 0.000000 0.000000
1.000000 0.000000 0.000000
1.000000 0.000000 0.000000
1.000000 0.000000 0.000000
1.000000 0.000000 0.000000
1.000000 0.000000 0.000000
1.000000 0.000000 0.000000
0.000000 0.166992 0.041504
0.003906 0.163330 0.039063
0.016357 0.159668 0.036865
0.030273 0.155518 0.034180
0.047607 0.150391 0.031006
0.069336 0.144043 0.026855
0.096436 0.135986 0.021973
0.129639 0.125977 0.015625
0.169189 0.114258 0.008301
0.215332 0.100830 0.000000
0.267334 0.085449 0.000000
0.324951 0.068359 0.000000
0.387207 0.049805 0.000000
0.453857 0.030273 0.000000
0.523193 0.009766 0.000000
0.594238 0.000000 0.000000
0.666016 0.000000 0.000000
0.737061 0.000000 0.000000
0.806152 0.000000 0.000000
0.872314 0.000000 0.000000
0.933838 0.000000 0.000000
0.967033 0.000000 0.000000
0.995116 0.000000 0.000000
1.000000 0.000000 0.000000
1.000000 0.000000 0.000000
1.000000 0.000000 0.000000
1.000000 0.000000 0.000000
1.000000 0.000000 0.000000
1.000000 0.000000 0.000000
1.000000 0.000000 0.000000
1.000000 0.000000 0.000000
1.000000 0.000000 0.000000
1.000000 0.000000 0.000000
0.000000 0.210449 0.049072
0.000000 0.206543 0.046631
0.009277 0.202881 0.044189
0.023438 0.198730 0.041748
0.040527 0.193604 0.038330
0.062256 0.187256 0.034424
0.089355 0.179199 0.029297
0.122803 0.169434 0.023193
0.162354 0.157715 0.015625
0.208252 0.144043 0.007080
0.260254 0.128662 0.000000
0.317871 0.111572 0.000000
0.380371 0.093262 0.000000
0.446777 0.073486 0.000000
0.516113 0.052979 0.000000
0.587402 0.031982 0.000000
0.658936 0.010742 0.000000
0.730225 0.000000 0.000000
0.799316 0.000000 0.000000
0.865234 0.000000 0.000000
0.926758 0.000000 0.000000
0.963614 0.000000 0.000000
0.991697 0.000000 0.000000
1.000000 0.000000 0.000000
1.000000 0.000000 0.000000
1.000000 0.000000 0.000000
1.000000 0.000000 0.000000
1.000000 0.000000 0.000000
1.000000 0.000000 0.000000
1.000000 0.000000 0.000000
1.000000 0.000000 0.000000
1.000000 0.000000 0.000000
1.000000 0.000000 0.000000
0.000000 0.260742 0.057617
0.000000 0.256836 0.055176
0.001221 0.253174 0.052979
0.015137 0.249023 0.050293
0.032471 0.243896 0.047119
0.054199 0.237549 0.042969
0.081299 0.229492 0.037842
0.114502 0.219727 0.031738
0.154297 0.208008 0.024414
0.200195 0.194336 0.015625
0.252197 0.178955 0.006104
0.309814 0.161865 0.000000
0.372314 0.143311 0.000000
0.438721 0.123779 0.000000
0.508057 0.103271 0.000000
0.579102 0.082275 0.000000
0.650879 0.061035 0.000000
0.721924 0.040039 0.000000
0.791260 0.019531 0.000000
0.857178 0.000000 0.000000
0.918701 0.000000 0.000000
0.959463 0.000000 0.000000
0.987790 0.000000 0.000000
1.000000 0.000000 0.000000
1.000000 0.000000 0.000000
1.000000 0.000000 0.000000
1.000000 0.000000 0.000000
1.000000 0.000000 0.000000
1.000000 0.000000 0.000000
1.000000 0.000000 0.000000
1.000000 0.000000 0.000000
1.000000 0.000000 0.000000
1.000000 0.000000 0.000000
0.000000 0.317627 0.067383
0.000000 0.313721 0.064941
0.000000 0.310059 0.062744
0.006104 0.305908 0.060059
0.023193 0.300781 0.056885
0.044922 0.294434 0.052734
0.072266 0.286377 0.047607
0.105469 0.276611 0.041504
0.145020 0.264893 0.034180
0.190918 0.251221 0.025391
0.242920 0.235840 0.015869
0.300537 0.218750 0.005127
0.363037 0.200195 0.000000
0.429443 0.180664 0.000000
0.498779 0.160156 0.000000
0.570068 0.139160 0.000000
0.641846 0.117920 0.000000
0.712891 0.096924 0.000000
0.781982 0.076416 0.000000
0.847900 0.056885 0.000000
0.909668 0.038574 0.000000
0.955067 0.021973 0.000000
0.983150 0.007324 0.000000
1.000000 0.000000 0.000000
1.000000 0.000000 0.000000
1.000000 0.000000 0.000000
1.000000 0.000000 0.000000
1.000000 0.000000 0.000000
1.000000 0.000000 0.000000
1.000000 0.000000 0.000000
1.000000 0.000000 0.000000
1.000000 0.000000 0.000000
1.000000 0.000000 0.000000
0.000000 0.380615 0.078125
0.000000 0.376709 0.075684
0.000000 0.373047 0.073486
0.000000 0.368896 0.070801
0.013184 0.363770 0.067627
0.034912 0.357422 0.063477
0.062012 0.349365 0.058594
0.095215 0.339600 0.052246
0.135010 0.327881 0.044922
0.180908 0.314209 0.036377
0.232910 0.298828 0.026611
0.290527 0.281738 0.015869
0.353027 0.263184 0.004150
0.419434 0.243652 0.000000
0.488770 0.223145 0.000000
0.559814 0.202148 0.000000
0.631592 0.180908 0.000000
0.702637 0.159912 0.000000
0.771729 0.139404 0.000000
0.837891 0.119873 0.000000
0.899414 0.101563 0.000000
0.949939 0.084961 0.000000
0.978022 0.070068 0.000000
1.000000 0.057373 0.000000
1.000000 0.046875 0.000000
1.000000 0.038574 0.000000
1.000000 0.032471 0.000000
1.000000 0.028564 0.000000
1.000000 0.026123 0.000000
1.000000 0.025146 0.000000
1.000000 0.024658 0.000000
1.000000 0.024170 0.000000
1.000000 0.023682 0.000000
0.000000 0.448730 0.089844
0.000000 0.445068 0.087402
0.000000 0.441406 0.085205
0.000000 0.437256 0.082520
0.002197 0.432129 0.079346
0.023926 0.425781 0.075195
0.051025 0.417725 0.070313
0.084229 0.407715 0.063965
0.123779 0.395996 0.056641
0.169922 0.382568 0.048096
0.221924 0.367188 0.038330
0.279541 0.350098 0.027588
0.341797 0.331543 0.015869
0.408447 0.312012 0.003418
0.477783 0.291504 0.000000
0.548828 0.270264 0.000000
0.620605 0.249023 0.000000
0.691650 0.228027 0.000000
0.760742 0.207764 0.000000
0.826904 0.188232 0.000000
0.888428 0.169922 0.000000
0.941880 0.153320 0.000000
0.972405 0.138428 0.000000
0.997558 0.125732 0.000000
1.000000 0.115234 0.000000
1.000000 0.106934 0.000000
1.000000 0.100830 0.000000
1.000000 0.096680 0.000000
1.000000 0.094482 0.000000
1.000000 0.093506 0.000000
1.000000 0.093018 0.000000
1.000000 0.092529 0.000000
1.000000 0.092041 0.000000
0.000000 0.521484 0.102295
0.000000 0.517578 0.099854
0.000000 0.513916 0.097656
0.000000 0.509766 0.094971
0.000000 0.504639 0.091797
0.012207 0.498291 0.087646
0.039307 0.490234 0.082764
0.072510 0.480469 0.076416
0.112305 0.468750 0.069092
0.158203 0.455078 0.060547
0.210205 0.439697 0.050781
0.267822 0.422607 0.040039
0.330322 0.404297 0.028320
0.396729 0.384521 0.016113
0.466064 0.364014 0.002930
0.537109 0.343018 0.000000
0.608887 0.321777 0.000000
0.679932 0.300781 0.000000
0.749023 0.280273 0.000000
0.815186 0.260742 0.000000
0.876709 0.242432 0.000000
0.929932 0.225830 0.000000
0.966545 0.211182 0.000000
0.991697 0.198486 0.000000
1.000000 0.187744 0.000000
1.000000 0.179443 0.000000
1.000000 0.173340 0.000000
1.000000 0.169434 0.000000
1.000000 0.166992 0.000000
1.000000 0.166016 0.000000
1.000000 0.165527 0.000000
1.000000 0.165039 0.000000
1.000000 0.164551 0.000000
0.000000 0.597168 0.115479
0.000000 0.593506 0.113037
0.000000 0.589844 0.110596
0.000000 0.585693 0.108154
0.000000 0.580566 0.104736
0.000000 0.574219 0.100830
0.027100 0.566162 0.095703
0.060303 0.556152 0.089600
0.099854 0.544434 0.082031
0.145996 0.531006 0.073486
0.197998 0.515625 0.063721
0.255615 0.498535 0.052979
0.317871 0.479980 0.041504
0.384521 0.460449 0.029053
0.453857 0.439941 0.016113
0.524902 0.418701 0.002686
0.596680 0.397705 0.000000
0.667725 0.376465 0.000000
0.736816 0.356201 0.000000
0.802734 0.336670 0.000000
0.864502 0.318359 0.000000
0.917725 0.301758 0.000000
0.960440 0.286865 0.000000
0.985592 0.274170 0.000000
1.000000 0.263672 0.000000
1.000000 0.255371 0.000000
1.000000 0.249268 0.000000
1.000000 0.245117 0.000000
1.000000 0.242920 0.000000
1.000000 0.241943 0.000000
1.000000 0.241455 0.000000
1.000000 0.240967 0.000000
1.000000 0.240479 0.000000
0.000000 0.675049 0.128662
0.000000 0.671143 0.126221
0.000000 0.667480 0.124023
0.000000 0.663574 0.121338
0.000000 0.658447 0.118164
0.000000 0.651855 0.114014
0.014648 0.643799 0.109131
0.047852 0.634033 0.102783
0.087402 0.622314 0.095459
0.133301 0.608643 0.086914
0.185303 0.593262 0.077148
0.242920 0.576416 0.066406
0.305420 0.557861 0.054688
0.371826 0.538086 0.042480
0.441162 0.517578 0.029541
0.512451 0.496582 0.016113
0.584229 0.475342 0.002686
0.655273 0.454346 0.000000
0.724365 0.433838 0.000000
0.790283 0.414307 0.000000
0.852051 0.396240 0.000000
0.905273 0.379639 0.000000
0.954335 0.364746 0.000000
0.979243 0.352051 0.000000
1.000000 0.341553 0.000000
1.000000 0.333252 0.000000
1.000000 0.327148 0.000000
1.000000 0.322998 0.000000
1.000000 0.320801 0.000000
1.000000 0.319580 0.000000
1.000000 0.319092 0.000000
1.000000 0.318604 0.000000
1.000000 0.318359 0.000000
0.000000 0.753418 0.142090
0.000000 0.749756 0.139893
0.000000 0.746094 0.137451
0.000000 0.741943 0.134766
0.000000 0.736816 0.131592
0.000000 0.730469 0.127686
0.001953 0.722412 0.122559
0.035156 0.712402 0.116211
0.074707 0.700684 0.108887
0.120605 0.687256 0.100342
0.172852 0.671875 0.090576
0.230225 0.654785 0.079834
0.292725 0.636230 0.068115
0.359131 0.616699 0.055908
0.428467 0.596191 0.042969
0.499756 0.575195 0.029541
0.571533 0.553955 0.016113
0.642578 0.532715 0.002930
0.711670 0.512451 0.000000
0.777588 0.492920 0.000000
0.839355 0.474609 0.000000
0.892578 0.458008 0.000000
0.942369 0.443115 0.000000
0.972894 0.430420 0.000000
0.994383 0.419922 0.000000
1.000000 0.411621 0.000000
1.000000 0.405518 0.000000
1.000000 0.401611 0.000000
1.000000 0.399170 0.000000
1.000000 0.398193 0.000000
1.000000 0.397705 0.000000
1.000000 0.397217 0.000000
1.000000 0.396729 0.000000
0.000000 0.831299 0.155518
0.000000 0.827393 0.153076
0.000000 0.823730 0.150879
0.000000 0.819580 0.148193
0.000000 0.814453 0.145020
0.000000 0.808105 0.140869
0.000000 0.800049 0.135742
0.022705 0.790283 0.129639
0.062256 0.778564 0.122314
0.108154 0.764893 0.113770
0.160156 0.749512 0.104004
0.217773 0.732422 0.093262
0.280273 0.714111 0.081543
0.346680 0.694336 0.069092
0.416016 0.673828 0.056152
0.487305 0.652832 0.042969
0.558838 0.631592 0.029541
0.630127 0.610596 0.016357
0.699219 0.590088 0.003418
0.765137 0.570557 0.000000
0.826660 0.552246 0.000000
0.879883 0.535645 0.000000
0.929688 0.520996 0.000000
0.966789 0.508301 0.000000
0.988278 0.497559 0.000000
1.000000 0.489258 0.000000
1.000000 0.483154 0.000000
1.000000 0.479248 0.000000
1.000000 0.476807 0.000000
1.000000 0.475830 0.000000
1.000000 0.475342 0.000000
1.000000 0.474854 0.000000
1.000000 0.474365 0.000000
0.000000 0.906738 0.168457
0.000000 0.903076 0.166016
0.000000 0.899414 0.163818
0.000000 0.895264 0.161133
0.000000 0.890137 0.157959
0.000000 0.883789 0.153809
0.000000 0.875732 0.148926
0.010498 0.865723 0.142578
0.050049 0.854004 0.135254
0.095947 0.840576 0.126709
0.147949 0.825195 0.116943
0.205566 0.808105 0.106201
0.268066 0.789551 0.094482
0.334473 0.770020 0.082031
0.403809 0.749512 0.069092
0.475098 0.728516 0.055908
0.546875 0.707275 0.042480
0.617920 0.686035 0.029297
0.687012 0.665771 0.016357
0.752930 0.646240 0.004150
0.814697 0.627930 0.000000
0.867920 0.611328 0.000000
0.917480 0.596436 0.000000
0.960440 0.583740 0.000000
0.982173 0.573242 0.000000
1.000000 0.564941 0.000000
1.000000 0.558838 0.000000
1.000000 0.554688 0.000000
1.000000 0.552490 0.000000
1.000000 0.551514 0.000000
1.000000 0.551025 0.000000
1.000000 0.550537 0.000000
1.000000 0.550049 0.000000
0.000000 0.979243 0.180908
0.000000 0.975336 0.178467
0.000000 0.971673 0.176270
0.000000 0.967521 0.173584
0.000000 0.962393 0.170410
0.000000 0.956044 0.166260
0.000000 0.947985 0.161133
0.000000 0.938217 0.155029
0.038330 0.926270 0.147705
0.084473 0.912598 0.139160
0.136475 0.897217 0.129395
0.194092 0.880127 0.118652
0.256348 0.861816 0.106934
0.322754 0.842041 0.094482
0.392334 0.821533 0.081543
0.463379 0.800537 0.068359
0.535156 0.779297 0.054932
0.606201 0.758301 0.041748
0.675293 0.737793 0.028809
0.741211 0.718262 0.016357
0.802979 0.700195 0.004883
0.856201 0.683350 0.000000
0.905762 0.668701 0.000000
0.948718 0.656006 0.000000
0.976313 0.645264 0.000000
0.994139 0.637207 0.000000
1.000000 0.631104 0.000000
1.000000 0.626953 0.000000
1.000000 0.624512 0.000000
1.000000 0.623535 0.000000
1.000000 0.623047 0.000000
1.000000 0.622559 0.000000
1.000000 0.622070 0.000000
0.000000 0.989744 0.192383
0.000000 0.987790 0.189941
0.000000 0.985836 0.187744
0.000000 0.983883 0.185059
0.000000 0.981197 0.181885
0.000000 0.978022 0.177979
0.000000 0.974115 0.172852
0.000000 0.969231 0.166504
0.027588 0.963370 0.159180
0.073486 0.956532 0.150635
0.125488 0.948718 0.140869
0.183105 0.940171 0.130127
0.245605 0.926270 0.118408
0.312012 0.906494 0.106201
0.381348 0.885986 0.093262
0.452637 0.864990 0.079834
0.524170 0.843750 0.066406
0.595459 0.822754 0.053223
0.664551 0.802246 0.040283
0.730469 0.782715 0.028076
0.791992 0.764648 0.016602
0.845215 0.747803 0.006104
0.895020 0.733154 0.000000
0.937973 0.720459 0.000000
0.970940 0.709717 0.000000
0.988767 0.701660 0.000000
1.000000 0.695557 0.000000
1.000000 0.691406 0.000000
1.000000 0.688965 0.000000
1.000000 0.687988 0.000000
1.000000 0.687500 0.000000
1.000000 0.687012 0.000000
1.000000 0.686523 0.000000
0.000000 1.000000 0.203125
0.000000 1.000000 0.200684
0.000000 1.000000 0.198242
0.000000 1.000000 0.195801
0.000000 1.000000 0.192383
0.000000 1.000000 0.188477
0.000000 1.000000 0.183350
0.000000 1.000000 0.177246
0.017578 0.997070 0.169678
0.063721 0.990232 0.161133
0.115723 0.982418 0.151367
0.173096 0.973871 0.140625
0.235596 0.964835 0.129150
0.302002 0.954823 0.116699
0.371338 0.944567 0.103760
0.442627 0.926025 0.090332
0.514404 0.904785 0.077148
0.585449 0.883789 0.063721
0.654541 0.863281 0.050781
0.720459 0.843750 0.038574
0.782227 0.825684 0.027100
0.835449 0.808838 0.016602
0.885010 0.794189 0.007324
0.927734 0.781494 0.000000
0.963614 0.770996 0.000000
0.983639 0.762695 0.000000
0.997802 0.756592 0.000000
1.000000 0.752441 0.000000
1.000000 0.750000 0.000000
1.000000 0.749023 0.000000
1.000000 0.748535 0.000000
1.000000 0.748047 0.000000
1.000000 0.747559 0.000000
0.000000 1.000000 0.212402
0.000000 1.000000 0.209961
0.000000 1.000000 0.207764
0.000000 1.000000 0.205078
0.000000 1.000000 0.201904
0.000000 1.000000 0.197754
0.000000 1.000000 0.192627
0.000000 1.000000 0.186523
0.008789 1.000000 0.179199
0.054688 1.000000 0.170654
0.106934 1.000000 0.160889
0.164307 1.000000 0.150146
0.226807 0.995604 0.138428
0.293213 0.985592 0.125977
0.362549 0.975336 0.113037
0.433838 0.964835 0.099854
0.505615 0.954335 0.086426
0.576660 0.938217 0.073242
0.645752 0.917725 0.060303
0.711670 0.898193 0.047852
0.773438 0.879883 0.036377
0.826660 0.863281 0.025879
0.876221 0.848389 0.016602
0.918945 0.835693 0.008545
0.954823 0.825195 0.001953
0.979243 0.816895 0.000000
0.993407 0.810791 0.000000
1.000000 0.806641 0.000000
1.000000 0.804443 0.000000
1.000000 0.803467 0.000000
1.000000 0.802979 0.000000
1.000000 0.802490 0.000000
1.000000 0.802002 0.000000
0.000000 1.000000 0.220459
0.000000 1.000000 0.218018
0.000000 1.000000 0.215820
0.000000 1.000000 0.213135
0.000000 1.000000 0.209961
0.000000 1.000000 0.205811
0.000000 1.000000 0.200928
0.000000 1.000000 0.194580
0.001221 1.000000 0.187256
0.047119 1.000000 0.178711
0.099121 1.000000 0.168945
0.156738 1.000000 0.158203
0.219238 1.000000 0.146484
0.285645 1.000000 0.134033
0.354980 1.000000 0.121094
0.426270 0.992186 0.107910
0.498047 0.981685 0.094482
0.569092 0.971184 0.081299
0.638184 0.960928 0.068359
0.704102 0.945055 0.055908
0.765869 0.926758 0.044434
0.819092 0.909912 0.033936
0.868652 0.895264 0.024658
0.911377 0.882568 0.016602
0.947253 0.872070 0.010010
0.975336 0.863770 0.004883
0.989499 0.857666 0.000977
0.999756 0.853516 0.000000
1.000000 0.851074 0.000000
1.000000 0.850098 0.000000
1.000000 0.849609 0.000000
1.000000 0.849121 0.000000
1.000000 0.848633 0.000000
0.000000 1.000000 0.227051
0.000000 1.000000 0.224854
0.000000 1.000000 0.222412
0.000000 1.000000 0.219727
0.000000 1.000000 0.216553
0.000000 1.000000 0.212646
0.000000 1.000000 0.207520
0.000000 1.000000 0.201172
0.000000 1.000000 0.193848
0.041016 1.000000 0.185303
0.093018 1.000000 0.175537
0.150635 1.000000 0.164795
0.212891 1.000000 0.153320
0.279297 1.000000 0.140869
0.348877 1.000000 0.127930
0.419922 1.000000 0.114502
0.491699 1.000000 0.101074
0.562744 0.994628 0.087891
0.631836 0.984371 0.074951
0.697754 0.974603 0.062744
0.759521 0.965568 0.051270
0.812744 0.949206 0.040771
0.862305 0.934082 0.031494
0.905029 0.921387 0.023438
0.940904 0.910889 0.016602
0.968987 0.902588 0.011475
0.986325 0.896484 0.007568
0.996581 0.892334 0.005127
1.000000 0.890137 0.003662
1.000000 0.889160 0.002930
1.000000 0.888672 0.002686
1.000000 0.888184 0.002441
1.000000 0.887695 0.001953
0.000000 1.000000 0.232422
0.000000 1.000000 0.229980
0.000000 1.000000 0.227783
0.000000 1.000000 0.225098
0.000000 1.000000 0.221924
0.000000 1.000000 0.217773
0.000000 1.000000 0.212646
0.000000 1.000000 0.206543
0.000000 1.000000 0.199219
0.035889 1.000000 0.190674
0.088135 1.000000 0.180908
0.145508 1.000000 0.170166
0.208008 1.000000 0.158447
0.274414 1.000000 0.145996
0.343750 1.000000 0.133057
0.415039 1.000000 0.119873
0.486816 1.000000 0.106445
0.557861 1.000000 0.093262
0.626953 1.000000 0.080322
0.692871 0.994139 0.067871
0.754639 0.985104 0.056396
0.807861 0.976557 0.045898
0.857422 0.965079 0.036621
0.900146 0.952381 0.028564
0.935791 0.941880 0.021973
0.964103 0.933350 0.016846
0.983883 0.927246 0.012939
0.994139 0.923096 0.010254
1.000000 0.920654 0.008789
1.000000 0.919678 0.008301
1.000000 0.919189 0.007813
1.000000 0.918701 0.007568
1.000000 0.918213 0.007324
0.000000 1.000000 0.236328
0.000000 1.000000 0.233887
0.000000 1.000000 0.231445
0.000000 1.000000 0.229004
0.000000 1.000000 0.225830
0.000000 1.000000 0.221680
0.000000 1.000000 0.216553
0.000000 1.000000 0.210449
0.000000 1.000000 0.203125
0.032471 1.000000 0.194336
0.084473 1.000000 0.184814
0.142090 1.000000 0.174072
0.204346 1.000000 0.162354
0.270752 1.000000 0.149902
0.340088 1.000000 0.136963
0.411377 1.000000 0.123779
0.483154 1.000000 0.110352
0.554199 1.000000 0.097168
0.623291 1.000000 0.084229
0.689209 1.000000 0.071777
0.750977 1.000000 0.060303
0.804199 0.991941 0.049805
0.853760 0.984615 0.040527
0.896484 0.975092 0.032471
0.932129 0.964591 0.025879
0.960440 0.956288 0.020508
0.981441 0.950183 0.016846
0.992430 0.946032 0.014160
