HypnoCore/Renderer/Effects/Library/BundledLUTs/Panasonic/V-Log to V-709.cube
# Vlog_to_V709_forV35_ver100.cube by panasonic
LUT_3D_SIZE 5
0.015625 0.015625 0.015625
0.193848 0.000000 0.000000
0.690430 0.000000 0.000000
1.000000 0.000000 0.000000
1.000000 0.000000 0.000000
0.000000 0.210449 0.049072
0.162354 0.157715 0.015625
0.658936 0.010742 0.000000
1.000000 0.000000 0.000000
1.000000 0.000000 0.000000
0.000000 0.753418 0.142090
0.074707 0.700684 0.108887
0.571533 0.553955 0.016113
0.994383 0.419922 0.000000
1.000000 0.396729 0.000000
0.000000 1.000000 0.227051
0.000000 1.000000 0.193848
0.491699 1.000000 0.101074
0.940904 0.910889 0.016602
1.000000 0.887695 0.001953
0.000000 1.000000 0.241943
0.000000 1.000000 0.208740
0.477783 1.000000 0.115967
0.926758 0.999756 0.031494
1.000000 0.977045 0.016846
0.014160 0.018799 0.160889
0.192383 0.000000 0.127441
0.689209 0.000000 0.034912
1.000000 0.000000 0.000000
1.000000 0.000000 0.000000
0.000000 0.213623 0.194336
0.160889 0.160889 0.160889
0.657715 0.013916 0.068359
1.000000 0.000000 0.000000
1.000000 0.000000 0.000000
0.000000 0.756836 0.287354
0.073486 0.704102 0.254150
0.570068 0.557129 0.161377
1.000000 0.423340 0.076904
1.000000 0.399902 0.062256
0.000000 1.000000 0.372314
0.000000 1.000000 0.339111
0.490234 1.000000 0.246338
0.943346 0.918213 0.161865
1.000000 0.895020 0.147217
0.000000 1.000000 0.387207
0.000000 1.000000 0.354004
0.476563 1.000000 0.261230
0.929199 1.000000 0.176758
1.000000 0.981197 0.162109
0.010254 0.027832 0.565674
0.188477 0.000000 0.532227
0.685303 0.000000 0.439697
1.000000 0.000000 0.355225
1.000000 0.000000 0.340576
0.000000 0.222900 0.599121
0.157227 0.170166 0.565674
0.653809 0.023193 0.473145
1.000000 0.000000 0.388672
1.000000 0.000000 0.374023
0.000000 0.765869 0.692383
0.069580 0.713135 0.658936
0.566406 0.566406 0.566406
1.000000 0.432373 0.481934
1.000000 0.409180 0.467041
0.000000 1.000000 0.777344
0.000000 1.000000 0.743896
0.486572 1.000000 0.651367
0.939438 0.927490 0.566895
1.000000 0.904053 0.552002
0.000000 1.000000 0.791992
0.000000 1.000000 0.758789
0.472656 1.000000 0.666016
0.925293 1.000000 0.581543
1.000000 0.990232 0.566895
0.006836 0.036377 0.934570
0.185059 0.000000 0.901367
0.681885 0.000000 0.808594
1.000000 0.000000 0.724121
1.000000 0.000000 0.709473
0.000000 0.231201 0.968254
0.153564 0.178467 0.934814
0.650391 0.031494 0.842041
1.000000 0.000000 0.757568
1.000000 0.000000 0.742920
0.000000 0.774414 1.000000
0.066162 0.721680 1.000000
0.562744 0.574707 0.935303
1.000000 0.440674 0.850830
1.000000 0.417480 0.836182
0.000000 1.000000 1.000000
0.000000 1.000000 1.000000
0.483154 1.000000 1.000000
0.935791 0.935791 0.935791
1.000000 0.912354 0.921143
0.000000 1.000000 1.000000
0.000000 1.000000 1.000000
0.469238 1.000000 1.000000
0.921875 1.000000 0.950672
1.000000 0.998779 0.935791
0.006348 0.037842 0.998779
0.184570 0.000000 0.965568
0.681152 0.000000 0.872559
1.000000 0.000000 0.788086
1.000000 0.000000 0.773438
0.000000 0.232666 1.000000
0.153076 0.179932 0.999023
0.649902 0.032959 0.906006
1.000000 0.000000 0.821533
1.000000 0.000000 0.806885
0.000000 0.775879 1.000000
0.065430 0.723145 1.000000
0.562256 0.576172 0.999512
1.000000 0.442139 0.914795
1.000000 0.418945 0.900146
0.000000 1.000000 1.000000
0.000000 1.000000 1.000000
0.482422 1.000000 1.000000
0.935059 0.937256 1.000000
1.000000 0.913818 0.985348
0.000000 1.000000 1.000000
0.000000 1.000000 1.000000
0.468506 1.000000 1.000000
0.921143 1.000000 1.000000
1.000000 1.000000 1.000000
