HypnoCore/Renderer/Effects/Library/BundledLUTs/Panasonic/V-Log to V-709.cube
# Vlog_to_V709_forV35_ver100.cube by panasonic
LUT_3D_SIZE 9
0.015625 0.015625 0.015625
0.072021 0.000000 0.004883
0.193848 0.000000 0.000000
0.411865 0.000000 0.000000
0.690430 0.000000 0.000000
0.958486 0.000000 0.000000
1.000000 0.000000 0.000000
1.000000 0.000000 0.000000
1.000000 0.000000 0.000000
0.005615 0.077148 0.026123
0.062012 0.060547 0.015625
0.183838 0.024414 0.000000
0.401855 0.000000 0.000000
0.680420 0.000000 0.000000
0.948474 0.000000 0.000000
1.000000 0.000000 0.000000
1.000000 0.000000 0.000000
1.000000 0.000000 0.000000
0.000000 0.210449 0.049072
0.040527 0.193604 0.038330
0.162354 0.157715 0.015625
0.380371 0.093262 0.000000
0.658936 0.010742 0.000000
0.926758 0.000000 0.000000
1.000000 0.000000 0.000000
1.000000 0.000000 0.000000
1.000000 0.000000 0.000000
0.000000 0.448730 0.089844
0.002197 0.432129 0.079346
0.123779 0.395996 0.056641
0.341797 0.331543 0.015869
0.620605 0.249023 0.000000
0.888428 0.169922 0.000000
1.000000 0.115234 0.000000
1.000000 0.094482 0.000000
1.000000 0.092041 0.000000
0.000000 0.753418 0.142090
0.000000 0.736816 0.131592
0.074707 0.700684 0.108887
0.292725 0.636230 0.068115
0.571533 0.553955 0.016113
0.839355 0.474609 0.000000
0.994383 0.419922 0.000000
1.000000 0.399170 0.000000
1.000000 0.396729 0.000000
0.000000 0.989744 0.192383
0.000000 0.981197 0.181885
0.027588 0.963370 0.159180
0.245605 0.926270 0.118408
0.524170 0.843750 0.066406
0.791992 0.764648 0.016602
0.970940 0.709717 0.000000
1.000000 0.688965 0.000000
1.000000 0.686523 0.000000
0.000000 1.000000 0.227051
0.000000 1.000000 0.216553
0.000000 1.000000 0.193848
0.212891 1.000000 0.153320
0.491699 1.000000 0.101074
0.759521 0.965568 0.051270
0.940904 0.910889 0.016602
1.000000 0.890137 0.003662
1.000000 0.887695 0.001953
0.000000 1.000000 0.240234
0.000000 1.000000 0.229736
0.000000 1.000000 0.207031
0.200684 1.000000 0.166504
0.479248 1.000000 0.114258
0.747070 1.000000 0.064453
0.928223 0.989744 0.029785
0.997314 0.968987 0.016846
1.000000 0.966300 0.015137
0.000000 1.000000 0.241943
0.000000 1.000000 0.231445
0.000000 1.000000 0.208740
0.199219 1.000000 0.167969
0.477783 1.000000 0.115967
0.745605 1.000000 0.065918
0.926758 0.999756 0.031494
0.996581 0.979487 0.018311
1.000000 0.977045 0.016846
0.015137 0.016602 0.061523
0.071533 0.000000 0.051025
0.193359 0.000000 0.028320
0.411377 0.000000 0.000000
0.689941 0.000000 0.000000
0.957998 0.000000 0.000000
1.000000 0.000000 0.000000
1.000000 0.000000 0.000000
1.000000 0.000000 0.000000
0.005127 0.078369 0.072021
0.061523 0.061523 0.061523
0.183350 0.025635 0.038818
0.401367 0.000000 0.000000
0.680176 0.000000 0.000000
0.948230 0.000000 0.000000
1.000000 0.000000 0.000000
1.000000 0.000000 0.000000
1.000000 0.000000 0.000000
0.000000 0.211426 0.094971
0.040039 0.194824 0.084473
0.161865 0.158691 0.061768
0.379883 0.094238 0.020996
0.658691 0.011719 0.000000
0.926514 0.000000 0.000000
1.000000 0.000000 0.000000
1.000000 0.000000 0.000000
1.000000 0.000000 0.000000
0.000000 0.449707 0.135986
0.001709 0.433105 0.125244
0.123535 0.397217 0.102539
0.341553 0.332520 0.062012
0.620117 0.250244 0.010010
0.887939 0.170898 0.000000
1.000000 0.116211 0.000000
1.000000 0.095459 0.000000
1.000000 0.093018 0.000000
0.000000 0.754639 0.188232
0.000000 0.737793 0.177734
0.074219 0.701904 0.155029
0.292236 0.637451 0.114258
0.571045 0.554932 0.062256
0.838867 0.475586 0.012207
1.000000 0.420898 0.000000
1.000000 0.400146 0.000000
1.000000 0.397705 0.000000
0.000000 0.990232 0.238525
0.000000 0.981929 0.228027
0.027100 0.963858 0.205078
0.245117 0.927246 0.164551
0.523926 0.844727 0.112549
0.791748 0.765625 0.062500
0.976801 0.710938 0.028076
1.000000 0.690186 0.014893
1.000000 0.687500 0.013428
0.000000 1.000000 0.273193
0.000000 1.000000 0.262695
0.000000 1.000000 0.239990
0.212646 1.000000 0.199219
0.491211 1.000000 0.147217
0.759033 0.970940 0.097168
0.944078 0.916016 0.062744
1.000000 0.895264 0.049561
1.000000 0.892822 0.048096
0.000000 1.000000 0.286377
0.000000 1.000000 0.275879
0.000000 1.000000 0.253174
0.200195 1.000000 0.212402
0.478760 1.000000 0.160400
0.746582 1.000000 0.110352
0.931641 0.992918 0.075928
1.000000 0.972161 0.062744
1.000000 0.969719 0.061279
0.000000 1.000000 0.287842
0.000000 1.000000 0.277344
0.000000 1.000000 0.254639
0.198730 1.000000 0.213867
0.477295 1.000000 0.161865
0.745117 1.000000 0.112061
0.930176 1.000000 0.077393
1.000000 0.981441 0.064453
1.000000 0.978999 0.062744
0.014160 0.018799 0.160889
0.070557 0.002197 0.150146
0.192383 0.000000 0.127441
0.410400 0.000000 0.086914
0.689209 0.000000 0.034912
0.957021 0.000000 0.000000
1.000000 0.000000 0.000000
1.000000 0.000000 0.000000
1.000000 0.000000 0.000000
0.004150 0.080566 0.171387
0.060547 0.063721 0.160889
0.182373 0.027832 0.138184
0.400391 0.000000 0.097412
0.679199 0.000000 0.045410
0.947253 0.000000 0.000000
1.000000 0.000000 0.000000
1.000000 0.000000 0.000000
1.000000 0.000000 0.000000
0.000000 0.213623 0.194336
0.039063 0.197021 0.183594
0.160889 0.160889 0.160889
0.378906 0.096436 0.120361
0.657715 0.013916 0.068359
0.925537 0.000000 0.018311
1.000000 0.000000 0.000000
1.000000 0.000000 0.000000
1.000000 0.000000 0.000000
0.000000 0.452148 0.235107
0.000732 0.435303 0.224609
0.122559 0.399414 0.201904
0.340576 0.334961 0.161133
0.619141 0.252441 0.109131
0.886963 0.173096 0.059082
1.000000 0.118408 0.024658
1.000000 0.097656 0.011475
1.000000 0.095215 0.010010
0.000000 0.756836 0.287354
0.000000 0.740234 0.276855
0.073486 0.704102 0.254150
0.291504 0.639648 0.213379
0.570068 0.557129 0.161377
0.837891 0.478027 0.111572
1.000000 0.423340 0.076904
1.000000 0.402344 0.063965
1.000000 0.399902 0.062256
0.000000 0.991209 0.337646
0.000000 0.982906 0.327148
0.026123 0.964835 0.304443
0.244141 0.929443 0.263672
0.522949 0.846924 0.211670
0.790771 0.767822 0.161865
0.975824 0.713135 0.127197
1.000000 0.692383 0.114258
1.000000 0.689941 0.112549
0.000000 1.000000 0.372314
0.000000 1.000000 0.361816
0.000000 1.000000 0.339111
0.211670 1.000000 0.298584
0.490234 1.000000 0.246338
0.758057 0.973138 0.196533
0.943346 0.918213 0.161865
1.000000 0.897461 0.148926
1.000000 0.895020 0.147217
0.000000 1.000000 0.385498
0.000000 1.000000 0.375000
0.000000 1.000000 0.352295
0.199219 1.000000 0.311768
0.478027 1.000000 0.259521
0.745850 1.000000 0.209717
0.930664 0.995360 0.175049
1.000000 0.974603 0.162109
1.000000 0.971917 0.160400
0.000000 1.000000 0.387207
0.000000 1.000000 0.376709
0.000000 1.000000 0.354004
0.197754 1.000000 0.313232
0.476563 1.000000 0.261230
0.744385 1.000000 0.211182
0.929199 1.000000 0.176758
0.999756 0.983639 0.163574
1.000000 0.981197 0.162109
0.012451 0.022705 0.338379
0.068848 0.006104 0.327881
0.190674 0.000000 0.305176
0.408691 0.000000 0.264404
0.687500 0.000000 0.212402
0.955556 0.000000 0.162598
1.000000 0.000000 0.127930
1.000000 0.000000 0.114990
1.000000 0.000000 0.113281
0.002441 0.084473 0.349121
0.058838 0.067871 0.338623
0.180664 0.031738 0.315674
0.398682 0.000000 0.275146
0.677490 0.000000 0.223145
0.945543 0.000000 0.173096
1.000000 0.000000 0.138672
1.000000 0.000000 0.125488
1.000000 0.000000 0.124023
0.000000 0.217773 0.371826
0.037598 0.200928 0.361328
0.159180 0.165039 0.338623
0.377197 0.100586 0.297852
0.656006 0.018066 0.245850
0.923828 0.000000 0.196045
1.000000 0.000000 0.161377
1.000000 0.000000 0.148438
1.000000 0.000000 0.146729
0.000000 0.456055 0.412842
0.000000 0.439453 0.402344
0.120850 0.403320 0.379639
0.338867 0.338867 0.338867
0.617676 0.256348 0.286865
0.885498 0.177246 0.236816
1.000000 0.122559 0.202393
1.000000 0.101807 0.189209
1.000000 0.099365 0.187744
0.000000 0.760742 0.465088
0.000000 0.744141 0.454590
0.071777 0.708008 0.431885
0.289795 0.643555 0.391113
0.568359 0.561279 0.339111
0.836182 0.481934 0.289307
1.000000 0.427246 0.254639
1.000000 0.406494 0.241455
1.000000 0.404053 0.239990
0.000000 0.993407 0.515381
0.000000 0.984860 0.504883
0.024414 0.967033 0.482178
0.242432 0.933594 0.441406
0.521240 0.851074 0.389404
0.789063 0.771729 0.339355
0.974115 0.717041 0.304932
1.000000 0.696289 0.291748
1.000000 0.693848 0.290283
0.000000 1.000000 0.550049
0.000000 1.000000 0.539551
0.000000 1.000000 0.516846
0.209961 1.000000 0.476074
0.488770 1.000000 0.424072
0.756348 0.977045 0.374268
0.941636 0.922119 0.339600
1.000000 0.901367 0.326416
1.000000 0.898926 0.324951
0.000000 1.000000 0.563232
0.000000 1.000000 0.552734
0.000000 1.000000 0.530029
0.197510 1.000000 0.489258
0.476318 1.000000 0.437256
0.744141 1.000000 0.387451
0.928955 0.999267 0.352783
0.999512 0.978510 0.339844
1.000000 0.976068 0.338135
0.000000 1.000000 0.564941
0.000000 1.000000 0.554443
0.000000 1.000000 0.531494
0.196045 1.000000 0.490967
0.474854 1.000000 0.438965
0.742676 1.000000 0.388916
0.927490 1.000000 0.354492
0.998046 0.987546 0.341309
1.000000 0.985104 0.339844
0.010254 0.027832 0.565674
0.066650 0.011230 0.555176
0.188477 0.000000 0.532227
0.406494 0.000000 0.491699
0.685303 0.000000 0.439697
0.953358 0.000000 0.389648
1.000000 0.000000 0.355225
1.000000 0.000000 0.342041
1.000000 0.000000 0.340576
0.000488 0.089600 0.576172
0.056885 0.072998 0.565674
0.178711 0.036865 0.542969
0.396729 0.000000 0.502197
0.675293 0.000000 0.450195
0.943346 0.000000 0.400146
1.000000 0.000000 0.365723
1.000000 0.000000 0.352539
1.000000 0.000000 0.351074
0.000000 0.222900 0.599121
0.035400 0.206055 0.588623
0.157227 0.170166 0.565674
0.375244 0.105713 0.525146
0.653809 0.023193 0.473145
0.921631 0.000000 0.423096
1.000000 0.000000 0.388672
1.000000 0.000000 0.375488
1.000000 0.000000 0.374023
0.000000 0.461182 0.639893
0.000000 0.444580 0.629395
0.118652 0.408447 0.606689
0.336670 0.343994 0.565918
0.615479 0.261475 0.513916
0.883301 0.182373 0.464111
1.000000 0.127686 0.429443
1.000000 0.106934 0.416504
1.000000 0.104492 0.414795
0.000000 0.765869 0.692383
0.000000 0.749268 0.681641
0.069580 0.713135 0.658936
0.287598 0.648682 0.618408
0.566406 0.566406 0.566406
0.834229 0.487061 0.516357
1.000000 0.432373 0.481934
1.000000 0.411621 0.468750
1.000000 0.409180 0.467041
0.000000 0.995849 0.742432
0.000000 0.987546 0.731934
0.022461 0.969475 0.709229
0.240479 0.937012 0.668701
0.519043 0.856201 0.616455
0.786865 0.776855 0.566650
0.971917 0.722168 0.531982
1.000000 0.701416 0.519043
1.000000 0.698975 0.517334
0.000000 1.000000 0.777344
0.000000 1.000000 0.766602
0.000000 1.000000 0.743896
0.207764 1.000000 0.703369
0.486572 1.000000 0.651367
0.754395 0.982418 0.601318
0.939438 0.927490 0.566895
1.000000 0.906494 0.553711
1.000000 0.904053 0.552002
0.000000 1.000000 0.790527
0.000000 1.000000 0.779785
0.000000 1.000000 0.757080
0.195313 1.000000 0.716553
0.474121 1.000000 0.664551
0.741943 1.000000 0.614502
0.926758 1.000000 0.580078
0.997314 0.983639 0.566895
1.000000 0.981197 0.565186
0.000000 1.000000 0.791992
0.000000 1.000000 0.781494
0.000000 1.000000 0.758789
0.193848 1.000000 0.718018
0.472656 1.000000 0.666016
0.740479 1.000000 0.615967
0.925293 1.000000 0.581543
0.995849 0.992674 0.568359
1.000000 0.990232 0.566895
0.008301 0.032959 0.783936
0.064697 0.016113 0.773438
0.186523 0.000000 0.750488
0.404541 0.000000 0.709961
0.683350 0.000000 0.657959
0.951160 0.000000 0.607910
1.000000 0.000000 0.573486
1.000000 0.000000 0.560303
1.000000 0.000000 0.558838
0.000000 0.094482 0.794434
0.054688 0.077881 0.783936
0.176514 0.041748 0.761230
0.394531 0.000000 0.720459
0.673340 0.000000 0.668457
0.941392 0.000000 0.618408
1.000000 0.000000 0.583984
1.000000 0.000000 0.570801
1.000000 0.000000 0.569336
0.000000 0.227783 0.817383
0.033203 0.211182 0.806885
0.155029 0.175049 0.783936
0.373047 0.110596 0.743408
0.651855 0.028076 0.691406
0.919678 0.000000 0.641357
1.000000 0.000000 0.606934
1.000000 0.000000 0.593750
1.000000 0.000000 0.592285
0.000000 0.466064 0.858154
0.000000 0.449463 0.847656
0.116699 0.413330 0.824951
0.334717 0.348877 0.784180
0.613281 0.266602 0.732178
0.881104 0.187256 0.682373
1.000000 0.132568 0.647705
1.000000 0.111816 0.634766
1.000000 0.109375 0.633057
0.000000 0.770996 0.910645
0.000000 0.754150 0.899902
0.067627 0.718262 0.877197
0.285645 0.653809 0.836670
0.564209 0.571289 0.784668
0.832031 0.491943 0.734619
1.000000 0.437256 0.700195
1.000000 0.416504 0.687012
1.000000 0.414063 0.685303
0.000000 0.998291 0.960928
0.000000 0.989988 0.950427
0.020264 0.971917 0.927490
0.238281 0.939683 0.886963
0.517090 0.861084 0.834717
0.784912 0.781982 0.784912
0.969963 0.727295 0.750244
1.000000 0.706543 0.737305
1.000000 0.703857 0.735596
0.000000 1.000000 0.995849
0.000000 1.000000 0.985104
0.000000 1.000000 0.962393
0.205811 1.000000 0.921631
0.484375 1.000000 0.869629
0.752197 0.987302 0.819580
0.937256 0.932373 0.785156
1.000000 0.911621 0.771973
1.000000 0.909180 0.770264
0.000000 1.000000 0.979487
0.000000 1.000000 0.974115
0.000000 1.000000 0.962882
0.193359 1.000000 0.932617
0.472168 1.000000 0.880615
0.739990 1.000000 0.830566
0.924805 1.000000 0.796143
0.995360 0.988523 0.782959
1.000000 0.986081 0.781494
0.000000 1.000000 0.980220
0.000000 1.000000 0.974847
0.000000 1.000000 0.963614
0.191895 1.000000 0.934082
0.470703 1.000000 0.882080
0.738525 1.000000 0.832275
0.923340 1.000000 0.797607
0.993895 0.997802 0.784668
1.000000 0.995360 0.782959
0.006836 0.036377 0.934570
0.063232 0.019531 0.924072
0.185059 0.000000 0.901367
0.403076 0.000000 0.860596
0.681885 0.000000 0.808594
0.949939 0.000000 0.758545
1.000000 0.000000 0.724121
1.000000 0.000000 0.710938
1.000000 0.000000 0.709473
0.000000 0.097900 0.945299
0.053223 0.081299 0.934570
0.175049 0.045166 0.911865
0.393066 0.000000 0.871094
0.671875 0.000000 0.819092
0.939927 0.000000 0.769287
1.000000 0.000000 0.734619
1.000000 0.000000 0.721436
1.000000 0.000000 0.719971
0.000000 0.231201 0.968254
0.031982 0.214600 0.957753
0.153564 0.178467 0.934814
0.371582 0.114014 0.894043
0.650391 0.031494 0.842041
0.918213 0.000000 0.791992
1.000000 0.000000 0.757568
1.000000 0.000000 0.744385
1.000000 0.000000 0.742920
0.000000 0.469482 1.000000
0.000000 0.452881 0.998535
0.115234 0.416748 0.975824
0.333252 0.352295 0.935059
0.612061 0.270020 0.882813
0.879883 0.190674 0.833008
1.000000 0.135986 0.798340
1.000000 0.115234 0.785400
1.000000 0.112793 0.783691
0.000000 0.774414 1.000000
0.000000 0.757568 1.000000
0.066162 0.721680 1.000000
0.284180 0.656982 0.987546
0.562744 0.574707 0.935303
0.830566 0.495361 0.885254
1.000000 0.440674 0.850830
1.000000 0.419922 0.837646
1.000000 0.417480 0.836182
0.000000 1.000000 1.000000
0.000000 0.991697 1.000000
0.018799 0.973626 1.000000
0.236816 0.941392 1.000000
0.515625 0.864502 0.985836
0.783447 0.785400 0.935547
0.968498 0.730713 0.901123
1.000000 0.709961 0.887939
1.000000 0.707275 0.886230
0.000000 1.000000 1.000000
0.000000 1.000000 1.000000
0.000000 1.000000 1.000000
0.204346 1.000000 1.000000
0.483154 1.000000 1.000000
0.750732 0.990720 0.970452
0.935791 0.935791 0.935791
1.000000 0.915039 0.922607
1.000000 0.912354 0.921143
0.000000 1.000000 1.000000
0.000000 1.000000 1.000000
0.000000 1.000000 1.000000
0.191895 1.000000 1.000000
0.470703 1.000000 1.000000
0.738525 1.000000 0.983639
0.923340 1.000000 0.949206
0.993895 0.991941 0.935791
1.000000 0.989499 0.934326
0.000000 1.000000 1.000000
0.000000 1.000000 1.000000
0.000000 1.000000 1.000000
0.190430 1.000000 1.000000
0.469238 1.000000 1.000000
0.737061 1.000000 0.985104
0.921875 1.000000 0.950672
0.992430 1.000000 0.937256
1.000000 0.998779 0.935791
0.006348 0.037598 0.991941
0.062744 0.020996 0.981441
0.184570 0.000000 0.958730
0.402588 0.000000 0.917725
0.681152 0.000000 0.865723
0.949206 0.000000 0.815918
1.000000 0.000000 0.781250
1.000000 0.000000 0.768311
1.000000 0.000000 0.766602
0.000000 0.099365 1.000000
0.052734 0.082520 0.992186
0.174561 0.046631 0.969475
0.392578 0.000000 0.928467
0.671387 0.000000 0.876465
0.939438 0.000000 0.826416
1.000000 0.000000 0.791992
1.000000 0.000000 0.778809
1.000000 0.000000 0.777344
0.000000 0.232422 1.000000
0.031250 0.215820 1.000000
0.153076 0.179688 0.992186
0.371094 0.115234 0.951404
0.649902 0.032715 0.899170
0.917725 0.000000 0.849365
1.000000 0.000000 0.814697
1.000000 0.000000 0.801758
1.000000 0.000000 0.800049
0.000000 0.470947 1.000000
0.000000 0.454102 1.000000
0.114746 0.418213 1.000000
0.332764 0.353760 0.992430
0.611328 0.271240 0.940415
0.879150 0.191895 0.890137
1.000000 0.137207 0.855713
1.000000 0.116455 0.842529
1.000000 0.114014 0.841064
0.000000 0.775635 1.000000
0.000000 0.759033 1.000000
0.065674 0.722900 1.000000
0.283691 0.658447 1.000000
0.562256 0.575928 0.992674
0.830078 0.496826 0.942857
1.000000 0.442139 0.907959
1.000000 0.421143 0.895020
1.000000 0.418701 0.893311
0.000000 1.000000 1.000000
0.000000 0.992430 1.000000
0.018311 0.974359 1.000000
0.236328 0.942125 1.000000
0.515137 0.865723 1.000000
0.782959 0.786621 0.992918
0.968010 0.731934 0.958486
1.000000 0.711182 0.945299
1.000000 0.708740 0.943834
0.000000 1.000000 1.000000
0.000000 1.000000 1.000000
0.000000 1.000000 1.000000
0.203857 1.000000 1.000000
0.482422 1.000000 1.000000
0.750244 0.991941 1.000000
0.935303 0.937012 0.993162
1.000000 0.916260 0.980220
1.000000 0.913818 0.978510
0.000000 1.000000 1.000000
0.000000 1.000000 1.000000
0.000000 1.000000 1.000000
0.191406 1.000000 1.000000
0.470215 1.000000 1.000000
0.738037 1.000000 1.000000
0.922852 1.000000 1.000000
0.993407 0.993407 0.993407
1.000000 0.990720 0.991697
0.000000 1.000000 1.000000
0.000000 1.000000 1.000000
0.000000 1.000000 1.000000
0.189941 1.000000 1.000000
0.468750 1.000000 1.000000
0.736572 1.000000 1.000000
0.921387 1.000000 1.000000
0.991941 1.000000 0.994872
1.000000 1.000000 0.993407
0.006348 0.037842 0.998779
0.062744 0.020996 0.988278
0.184570 0.000000 0.965568
0.402588 0.000000 0.924561
0.681152 0.000000 0.872559
0.949206 0.000000 0.822754
1.000000 0.000000 0.788086
1.000000 0.000000 0.775146
1.000000 0.000000 0.773438
0.000000 0.099365 1.000000
0.052734 0.082764 0.999023
0.174561 0.046631 0.976068
0.392578 0.000000 0.935303
0.671143 0.000000 0.883301
0.939194 0.000000 0.833252
1.000000 0.000000 0.798828
1.000000 0.000000 0.785645
1.000000 0.000000 0.784180
0.000000 0.232666 1.000000
0.031250 0.216064 1.000000
0.153076 0.179932 0.999023
0.371094 0.115479 0.958242
0.649902 0.032959 0.906006
0.917480 0.000000 0.856201
1.000000 0.000000 0.821533
1.000000 0.000000 0.808594
1.000000 0.000000 0.806885
0.000000 0.470947 1.000000
0.000000 0.454346 1.000000
0.114746 0.418213 1.000000
0.332764 0.353760 0.999267
0.611328 0.271484 0.947253
0.879150 0.192139 0.896973
1.000000 0.137451 0.862549
1.000000 0.116699 0.849365
1.000000 0.114258 0.847900
0.000000 0.775879 1.000000
0.000000 0.759033 1.000000
0.065430 0.723145 1.000000
0.283447 0.658447 1.000000
0.562256 0.576172 0.999512
0.830078 0.496826 0.949451
1.000000 0.442139 0.914795
1.000000 0.421387 0.901611
1.000000 0.418945 0.900146
0.000000 1.000000 1.000000
0.000000 0.992430 1.000000
0.018311 0.974359 1.000000
0.236328 0.942125 1.000000
0.515137 0.865967 1.000000
0.782715 0.786865 0.999756
0.968010 0.732178 0.965324
1.000000 0.711182 0.952137
1.000000 0.708740 0.950672
0.000000 1.000000 1.000000
0.000000 1.000000 1.000000
0.000000 1.000000 1.000000
0.203857 1.000000 1.000000
0.482422 1.000000 1.000000
0.750244 0.992186 1.000000
0.935059 0.937256 1.000000
1.000000 0.916504 0.986813
1.000000 0.913818 0.985348
0.000000 1.000000 1.000000
0.000000 1.000000 1.000000
0.000000 1.000000 1.000000
0.191406 1.000000 1.000000
0.469971 1.000000 1.000000
0.737793 1.000000 1.000000
0.922852 1.000000 1.000000
0.993162 0.993407 1.000000
1.000000 0.990965 0.998535
0.000000 1.000000 1.000000
0.000000 1.000000 1.000000
0.000000 1.000000 1.000000
0.189941 1.000000 1.000000
0.468506 1.000000 1.000000
0.736328 1.000000 1.000000
0.921143 1.000000 1.000000
0.991697 1.000000 1.000000
1.000000 1.000000 1.000000
