HypnoCore/Renderer/Effects/Library/BundledLUTs/Classic Chrome.cube
#Created by: Pixelmator Pro
#Color profile: "Display P3"
TITLE "classic chrome"
DOMAIN_MIN 0.0000 0.0000 0.0000
DOMAIN_MAX 1.0000 1.0000 1.0000
LUT_3D_SIZE 35
0.0000 0.0000 0.0000
0.0047 0.0008 0.0000
0.0145 0.0000 0.0000
0.0270 0.0000 0.0000
0.0440 0.0009 0.0000
0.0646 0.0021 0.0000
0.0887 0.0036 0.0000
0.1200 0.0058 0.0000
0.1544 0.0098 0.0000
0.1898 0.0144 0.0000
0.2298 0.0195 0.0000
0.2686 0.0246 0.0003
0.3069 0.0302 0.0012
0.3440 0.0362 0.0030
0.3801 0.0430 0.0059
0.4140 0.0495 0.0089
0.4458 0.0557 0.0120
0.4771 0.0622 0.0152
0.5081 0.0691 0.0183
0.5374 0.0750 0.0182
0.5652 0.0798 0.0150
0.5957 0.0817 0.0089
0.6288 0.0816 0.0009
0.6549 0.0845 0.0000
0.6815 0.0871 0.0000
0.7097 0.0880 0.0000
0.7373 0.0886 0.0000
0.7648 0.0863 0.0000
0.7932 0.0768 0.0000
0.8231 0.0638 0.0000
0.8539 0.0536 0.0000
0.8816 0.0447 0.0000
0.8975 0.0474 0.0000
0.9040 0.0769 0.0000
0.9248 0.1243 0.0000
0.0000 0.0031 0.0000
0.0036 0.0041 0.0000
0.0123 0.0049 0.0002
0.0239 0.0060 0.0001
0.0394 0.0067 0.0012
0.0602 0.0079 0.0019
0.0855 0.0095 0.0021
0.1182 0.0123 0.0016
0.1537 0.0164 0.0016
0.1900 0.0211 0.0017
0.2304 0.0274 0.0011
0.2695 0.0334 0.0009
0.3078 0.0392 0.0013
0.3449 0.0453 0.0026
0.3811 0.0518 0.0050
0.4151 0.0580 0.0077
0.4471 0.0641 0.0107
0.4786 0.0703 0.0138
0.5100 0.0765 0.0168
0.5394 0.0821 0.0166
0.5671 0.0871 0.0131
0.5975 0.0894 0.0076
0.6303 0.0900 0.0007
0.6566 0.0930 0.0000
0.6834 0.0956 0.0000
0.7115 0.0969 0.0000
0.7389 0.0985 0.0000
0.7664 0.0967 0.0000
0.7948 0.0887 0.0000
0.8247 0.0783 0.0000
0.8555 0.0700 0.0000
0.8831 0.0638 0.0000
0.8987 0.0669 0.0000
0.9050 0.0902 0.0000
0.9255 0.1356 0.0000
0.0000 0.0088 0.0000
0.0019 0.0097 0.0001
0.0108 0.0112 0.0007
0.0240 0.0131 0.0010
0.0389 0.0137 0.0017
0.0594 0.0147 0.0026
0.0849 0.0164 0.0032
0.1185 0.0200 0.0028
0.1544 0.0245 0.0027
0.1910 0.0294 0.0028
0.2316 0.0356 0.0019
0.2708 0.0416 0.0012
0.3090 0.0474 0.0011
0.3460 0.0533 0.0018
0.3822 0.0594 0.0036
0.4163 0.0654 0.0058
0.4485 0.0714 0.0086
0.4803 0.0772 0.0115
0.5118 0.0830 0.0144
0.5413 0.0884 0.0142
0.5690 0.0936 0.0105
0.5993 0.0963 0.0059
0.6318 0.0975 0.0006
0.6583 0.1004 0.0000
0.6852 0.1032 0.0000
0.7132 0.1049 0.0000
0.7405 0.1072 0.0000
0.7679 0.1060 0.0000
0.7965 0.0991 0.0000
0.8264 0.0904 0.0000
0.8572 0.0837 0.0000
0.8846 0.0798 0.0000
0.9000 0.0832 0.0000
0.9060 0.1018 0.0000
0.9261 0.1462 0.0000
0.0000 0.0174 0.0000
0.0011 0.0181 0.0002
0.0088 0.0202 0.0012
0.0217 0.0227 0.0021
0.0419 0.0239 0.0029
0.0623 0.0254 0.0035
0.0858 0.0275 0.0039
0.1205 0.0309 0.0040
0.1563 0.0361 0.0043
0.1921 0.0419 0.0044
0.2329 0.0477 0.0032
0.2722 0.0530 0.0022
0.3105 0.0575 0.0012
0.3476 0.0628 0.0012
0.3837 0.0690 0.0023
0.4179 0.0748 0.0039
0.4503 0.0803 0.0062
0.4822 0.0855 0.0087
0.5139 0.0903 0.0114
0.5436 0.0954 0.0109
0.5713 0.1010 0.0072
0.6014 0.1042 0.0037
0.6336 0.1060 0.0004
0.6603 0.1088 0.0000
0.6874 0.1117 0.0000
0.7152 0.1144 0.0000
0.7424 0.1167 0.0000
0.7699 0.1159 0.0000
0.7985 0.1102 0.0000
0.8284 0.1031 0.0000
0.8593 0.0981 0.0000
0.8865 0.0967 0.0000
0.9016 0.0998 0.0000
0.9073 0.1147 0.0000
0.9269 0.1583 0.0000
0.0000 0.0292 0.0000
0.0006 0.0292 0.0003
0.0054 0.0308 0.0021
0.0174 0.0335 0.0031
0.0372 0.0372 0.0045
0.0618 0.0405 0.0057
0.0898 0.0437 0.0064
0.1224 0.0471 0.0061
0.1577 0.0525 0.0067
0.1938 0.0586 0.0076
0.2343 0.0633 0.0063
0.2736 0.0680 0.0051
0.3122 0.0729 0.0036
0.3495 0.0778 0.0029
0.3859 0.0828 0.0031
0.4202 0.0878 0.0038
0.4526 0.0930 0.0050
0.4846 0.0976 0.0065
0.5164 0.1015 0.0085
0.5461 0.1061 0.0077
0.5740 0.1115 0.0041
0.6038 0.1146 0.0017
0.6357 0.1163 0.0002
0.6627 0.1188 0.0000
0.6899 0.1217 0.0000
0.7176 0.1252 0.0000
0.7447 0.1273 0.0000
0.7722 0.1266 0.0000
0.8009 0.1221 0.0000
0.8309 0.1166 0.0000
0.8618 0.1138 0.0000
0.8888 0.1139 0.0000
0.9037 0.1170 0.0000
0.9089 0.1287 0.0000
0.9279 0.1710 0.0000
0.0000 0.0436 0.0000
0.0002 0.0428 0.0010
0.0028 0.0439 0.0034
0.0126 0.0473 0.0043
0.0320 0.0520 0.0061
0.0577 0.0566 0.0077
0.0875 0.0611 0.0090
0.1211 0.0655 0.0093
0.1573 0.0711 0.0101
0.1943 0.0770 0.0110
0.2351 0.0812 0.0104
0.2747 0.0856 0.0096
0.3133 0.0904 0.0081
0.3509 0.0950 0.0070
0.3877 0.0993 0.0064
0.4223 0.1037 0.0060
0.4549 0.1080 0.0058
0.4871 0.1119 0.0062
0.5191 0.1152 0.0070
0.5489 0.1193 0.0057
0.5768 0.1243 0.0022
0.6064 0.1270 0.0006
0.6377 0.1284 0.0001
0.6650 0.1308 0.0000
0.6925 0.1337 0.0000
0.7203 0.1370 0.0000
0.7473 0.1388 0.0000
0.7748 0.1382 0.0000
0.8035 0.1347 0.0000
0.8336 0.1311 0.0000
0.8646 0.1299 0.0000
0.8913 0.1315 0.0000
0.9061 0.1343 0.0000
0.9106 0.1430 0.0000
0.9291 0.1831 0.0000
0.0000 0.0606 0.0000
0.0000 0.0593 0.0017
0.0009 0.0600 0.0047
0.0074 0.0637 0.0057
0.0263 0.0685 0.0078
0.0515 0.0738 0.0096
0.0812 0.0794 0.0113
0.1171 0.0850 0.0127
0.1551 0.0909 0.0137
0.1934 0.0967 0.0144
0.2349 0.1011 0.0149
0.2749 0.1054 0.0148
0.3138 0.1100 0.0138
0.3517 0.1142 0.0126
0.3889 0.1181 0.0113
0.4239 0.1218 0.0099
0.4569 0.1253 0.0084
0.4894 0.1286 0.0074
0.5217 0.1314 0.0069
0.5517 0.1350 0.0049
0.5796 0.1393 0.0014
0.6089 0.1415 0.0001
0.6397 0.1424 0.0000
0.6674 0.1449 0.0000
0.6953 0.1475 0.0000
0.7231 0.1500 0.0000
0.7501 0.1513 0.0000
0.7776 0.1508 0.0000
0.8064 0.1484 0.0000
0.8365 0.1465 0.0000
0.8675 0.1464 0.0000
0.8941 0.1493 0.0000
0.9086 0.1518 0.0000
0.9125 0.1575 0.0000
0.9305 0.1952 0.0000
0.0000 0.0829 0.0000
0.0000 0.0817 0.0018
0.0002 0.0819 0.0054
0.0017 0.0849 0.0076
0.0190 0.0890 0.0095
0.0433 0.0940 0.0114
0.0727 0.0993 0.0133
0.1091 0.1050 0.0154
0.1493 0.1119 0.0169
0.1904 0.1191 0.0180
0.2322 0.1243 0.0190
0.2728 0.1293 0.0197
0.3129 0.1339 0.0201
0.3516 0.1377 0.0197
0.3890 0.1405 0.0183
0.4243 0.1435 0.0164
0.4577 0.1468 0.0136
0.4909 0.1497 0.0113
0.5242 0.1520 0.0092
0.5545 0.1548 0.0062
0.5819 0.1582 0.0021
0.6109 0.1600 0.0004
0.6417 0.1608 0.0000
0.6697 0.1625 0.0000
0.6980 0.1643 0.0000
0.7262 0.1656 0.0000
0.7532 0.1662 0.0000
0.7808 0.1659 0.0000
0.8096 0.1645 0.0000
0.8397 0.1637 0.0000
0.8709 0.1647 0.0000
0.8974 0.1677 0.0000
0.9114 0.1698 0.0000
0.9145 0.1726 0.0000
0.9321 0.2085 0.0000
0.0000 0.1086 0.0000
0.0000 0.1080 0.0013
0.0000 0.1081 0.0054
0.0000 0.1102 0.0090
0.0096 0.1141 0.0110
0.0318 0.1186 0.0130
0.0621 0.1233 0.0150
0.0993 0.1284 0.0172
0.1404 0.1351 0.0190
0.1825 0.1424 0.0205
0.2264 0.1487 0.0224
0.2687 0.1546 0.0242
0.3101 0.1598 0.0259
0.3496 0.1639 0.0265
0.3875 0.1665 0.0258
0.4233 0.1693 0.0241
0.4573 0.1722 0.0213
0.4912 0.1746 0.0183
0.5254 0.1764 0.0151
0.5560 0.1787 0.0109
0.5831 0.1816 0.0058
0.6122 0.1827 0.0025
0.6433 0.1826 0.0002
0.6718 0.1834 0.0000
0.7006 0.1842 0.0000
0.7292 0.1848 0.0000
0.7562 0.1851 0.0000
0.7840 0.1848 0.0000
0.8129 0.1839 0.0000
0.8432 0.1837 0.0000
0.8744 0.1841 0.0000
0.9010 0.1855 0.0000
0.9145 0.1863 0.0000
0.9169 0.1865 0.0000
0.9339 0.2230 0.0000
0.0000 0.1354 0.0000
0.0000 0.1354 0.0007
0.0000 0.1358 0.0052
0.0000 0.1369 0.0101
0.0000 0.1409 0.0124
0.0191 0.1447 0.0144
0.0500 0.1486 0.0163
0.0884 0.1529 0.0185
0.1301 0.1590 0.0204
0.1726 0.1658 0.0223
0.2191 0.1733 0.0254
0.2636 0.1801 0.0284
0.3062 0.1861 0.0314
0.3467 0.1906 0.0331
0.3851 0.1936 0.0333
0.4216 0.1964 0.0323
0.4563 0.1989 0.0300
0.4910 0.2009 0.0268
0.5261 0.2022 0.0226
0.5570 0.2042 0.0173
0.5838 0.2067 0.0111
0.6131 0.2070 0.0057
0.6447 0.2059 0.0008
0.6737 0.2056 0.0001
0.7030 0.2054 0.0000
0.7320 0.2056 0.0000
0.7592 0.2057 0.0000
0.7871 0.2053 0.0000
0.8162 0.2046 0.0000
0.8466 0.2044 0.0000
0.8780 0.2038 0.0000
0.9048 0.2028 0.0000
0.9177 0.2020 0.0000
0.9194 0.1997 0.0000
0.9358 0.2378 0.0000
0.0000 0.1647 0.0000
0.0000 0.1649 0.0004
0.0000 0.1654 0.0036
0.0000 0.1663 0.0091
0.0000 0.1693 0.0126
0.0079 0.1727 0.0147
0.0270 0.1765 0.0162
0.0709 0.1806 0.0179
0.1155 0.1861 0.0201
0.1598 0.1920 0.0227
0.2071 0.1994 0.0270
0.2529 0.2063 0.0311
0.2977 0.2124 0.0351
0.3400 0.2177 0.0384
0.3800 0.2223 0.0409
0.4176 0.2261 0.0416
0.4531 0.2290 0.0403
0.4887 0.2311 0.0380
0.5250 0.2320 0.0345
0.5568 0.2334 0.0292
0.5844 0.2352 0.0220
0.6140 0.2352 0.0144
0.6458 0.2340 0.0065
0.6752 0.2336 0.0025
0.7049 0.2334 0.0000
0.7342 0.2332 0.0000
0.7618 0.2323 0.0000
0.7901 0.2303 0.0000
0.8195 0.2279 0.0000
0.8504 0.2255 0.0000
0.8819 0.2238 0.0000
0.9089 0.2225 0.0000
0.9213 0.2203 0.0000
0.9223 0.2147 0.0000
0.9380 0.2539 0.0000
0.0000 0.1933 0.0000
0.0000 0.1938 0.0002
0.0000 0.1944 0.0021
0.0000 0.1953 0.0070
0.0000 0.1976 0.0106
0.0004 0.2007 0.0126
0.0101 0.2043 0.0142
0.0516 0.2083 0.0163
0.0982 0.2132 0.0198
0.1460 0.2185 0.0239
0.1941 0.2257 0.0290
0.2410 0.2324 0.0340
0.2877 0.2386 0.0388
0.3318 0.2443 0.0432
0.3734 0.2496 0.0472
0.4124 0.2541 0.0493
0.4489 0.2578 0.0495
0.4857 0.2604 0.0483
0.5230 0.2616 0.0455
0.5559 0.2627 0.0406
0.5845 0.2639 0.0335
0.6146 0.2634 0.0244
0.6463 0.2620 0.0138
0.6762 0.2614 0.0056
0.7064 0.2608 0.0000
0.7361 0.2601 0.0000
0.7641 0.2583 0.0000
0.7928 0.2551 0.0000
0.8226 0.2515 0.0000
0.8540 0.2478 0.0000
0.8858 0.2449 0.0000
0.9129 0.2429 0.0000
0.9251 0.2391 0.0000
0.9253 0.2303 0.0000
0.9402 0.2698 0.0000
0.0000 0.2223 0.0000
0.0000 0.2230 0.0001
0.0000 0.2239 0.0007
0.0000 0.2250 0.0025
0.0000 0.2271 0.0037
0.0001 0.2299 0.0053
0.0053 0.2332 0.0078
0.0277 0.2372 0.0128
0.0740 0.2419 0.0196
0.1293 0.2469 0.0269
0.1782 0.2533 0.0322
0.2261 0.2596 0.0373
0.2743 0.2658 0.0423
0.3199 0.2710 0.0469
0.3631 0.2753 0.0510
0.4039 0.2801 0.0544
0.4427 0.2854 0.0569
0.4810 0.2895 0.0573
0.5189 0.2921 0.0552
0.5532 0.2936 0.0518
0.5839 0.2941 0.0470
0.6145 0.2931 0.0376
0.6458 0.2912 0.0250
0.6763 0.2899 0.0105
0.7072 0.2884 0.0000
0.7375 0.2867 0.0000
0.7661 0.2844 0.0000
0.7952 0.2811 0.0000
0.8254 0.2773 0.0000
0.8573 0.2732 0.0000
0.8897 0.2695 0.0000
0.9168 0.2663 0.0000
0.9295 0.2600 0.0000
0.9286 0.2478 0.0000
0.9424 0.2861 0.0000
0.0000 0.2507 0.0000
0.0000 0.2516 0.0000
0.0000 0.2526 0.0000
0.0000 0.2539 0.0000
0.0000 0.2559 0.0000
0.0000 0.2584 0.0010
0.0021 0.2613 0.0035
0.0113 0.2651 0.0092
0.0532 0.2695 0.0173
0.1082 0.2742 0.0260
0.1602 0.2800 0.0314
0.2104 0.2858 0.0370
0.2596 0.2917 0.0433
0.3064 0.2968 0.0490
0.3510 0.3009 0.0540
0.3935 0.3057 0.0585
0.4340 0.3113 0.0625
0.4739 0.3160 0.0643
0.5134 0.3195 0.0636
0.5491 0.3216 0.0610
0.5812 0.3223 0.0567
0.6126 0.3217 0.0475
0.6442 0.3201 0.0349
0.6753 0.3184 0.0161
0.7070 0.3164 0.0018
0.7382 0.3142 0.0001
0.7676 0.3114 0.0000
0.7973 0.3077 0.0000
0.8280 0.3037 0.0000
0.8603 0.2992 0.0000
0.8934 0.2945 0.0000
0.9208 0.2899 0.0000
0.9340 0.2813 0.0000
0.9322 0.2663 0.0000
0.9447 0.3024 0.0000
0.0000 0.2789 0.0000
0.0000 0.2798 0.0000
0.0000 0.2809 0.0000
0.0000 0.2822 0.0000
0.0000 0.2841 0.0000
0.0000 0.2863 0.0004
0.0007 0.2890 0.0017
0.0039 0.2924 0.0057
0.0363 0.2964 0.0125
0.0814 0.3007 0.0203
0.1394 0.3059 0.0257
0.1936 0.3111 0.0322
0.2430 0.3167 0.0411
0.2906 0.3218 0.0491
0.3367 0.3265 0.0560
0.3805 0.3311 0.0616
0.4222 0.3356 0.0660
0.4639 0.3397 0.0689
0.5060 0.3434 0.0703
0.5433 0.3463 0.0680
0.5760 0.3484 0.0619
0.6082 0.3491 0.0535
0.6411 0.3489 0.0433
0.6730 0.3473 0.0228
0.7055 0.3453 0.0057
0.7378 0.3429 0.0004
0.7684 0.3397 0.0000
0.7989 0.3357 0.0000
0.8303 0.3312 0.0000
0.8630 0.3263 0.0000
0.8968 0.3205 0.0000
0.9251 0.3141 0.0000
0.9387 0.3034 0.0000
0.9363 0.2862 0.0000
0.9469 0.3187 0.0000
0.0000 0.3063 0.0000
0.0000 0.3073 0.0000
0.0000 0.3084 0.0000
0.0000 0.3098 0.0000
0.0000 0.3116 0.0000
0.0000 0.3137 0.0000
0.0000 0.3161 0.0005
0.0000 0.3191 0.0029
0.0210 0.3227 0.0077
0.0525 0.3265 0.0133
0.1165 0.3312 0.0174
0.1753 0.3359 0.0231
0.2261 0.3410 0.0324
0.2749 0.3460 0.0412
0.3221 0.3510 0.0497
0.3669 0.3555 0.0577
0.4095 0.3597 0.0654
0.4524 0.3637 0.0708
0.4960 0.3675 0.0735
0.5349 0.3709 0.0724
0.5693 0.3739 0.0674
0.6030 0.3757 0.0583
0.6373 0.3768 0.0465
0.6700 0.3762 0.0243
0.7033 0.3750 0.0059
0.7364 0.3730 0.0005
0.7683 0.3694 0.0000
0.7999 0.3651 0.0000
0.8320 0.3602 0.0000
0.8651 0.3548 0.0000
0.8995 0.3483 0.0000
0.9287 0.3407 0.0000
0.9430 0.3290 0.0000
0.9404 0.3072 0.0000
0.9490 0.3381 0.0000
0.0000 0.3331 0.0000
0.0000 0.3342 0.0000
0.0000 0.3354 0.0000
0.0000 0.3368 0.0000
0.0000 0.3386 0.0000
0.0000 0.3405 0.0000
0.0000 0.3427 0.0002
0.0000 0.3453 0.0010
0.0073 0.3485 0.0027
0.0210 0.3519 0.0046
0.0913 0.3561 0.0060
0.1551 0.3604 0.0092
0.2087 0.3651 0.0163
0.2593 0.3697 0.0245
0.3072 0.3744 0.0342
0.3526 0.3792 0.0461
0.3958 0.3840 0.0606
0.4392 0.3882 0.0697
0.4831 0.3919 0.0727
0.5237 0.3955 0.0738
0.5610 0.3991 0.0732
0.5968 0.4018 0.0620
0.6326 0.4039 0.0439
0.6662 0.4054 0.0201
0.7002 0.4060 0.0020
0.7339 0.4047 0.0002
0.7673 0.4009 0.0000
0.8001 0.3963 0.0000
0.8331 0.3910 0.0000
0.8668 0.3853 0.0000
0.9014 0.3785 0.0000
0.9319 0.3702 0.0000
0.9468 0.3584 0.0000
0.9444 0.3295 0.0000
0.9510 0.3611 0.0000
0.0000 0.3591 0.0000
0.0000 0.3602 0.0000
0.0000 0.3614 0.0000
0.0000 0.3628 0.0000
0.0000 0.3645 0.0000
0.0000 0.3665 0.0000
0.0000 0.3686 0.0000
0.0000 0.3711 0.0000
0.0000 0.3741 0.0000
0.0038 0.3773 0.0000
0.0688 0.3813 0.0000
0.1306 0.3852 0.0014
0.1890 0.3895 0.0059
0.2426 0.3938 0.0119
0.2913 0.3983 0.0198
0.3373 0.4030 0.0336
0.3810 0.4081 0.0541
0.4246 0.4128 0.0680
0.4683 0.4171 0.0746
0.5101 0.4210 0.0750
0.5501 0.4243 0.0692
0.5884 0.4271 0.0542
0.6266 0.4296 0.0330
0.6615 0.4319 0.0136
0.6966 0.4333 0.0000
0.7312 0.4328 0.0000
0.7658 0.4300 0.0000
0.7997 0.4262 0.0000
0.8336 0.4213 0.0000
0.8680 0.4158 0.0000
0.9027 0.4092 0.0000
0.9344 0.4000 0.0000
0.9507 0.3852 0.0000
0.9484 0.3532 0.0000
0.9534 0.3803 0.0000
0.0000 0.3843 0.0000
0.0000 0.3853 0.0000
0.0000 0.3865 0.0000
0.0000 0.3879 0.0000
0.0000 0.3896 0.0000
0.0000 0.3916 0.0000
0.0000 0.3938 0.0000
0.0000 0.3965 0.0000
0.0000 0.3997 0.0000
0.0027 0.4031 0.0000
0.0492 0.4069 0.0000
0.1010 0.4107 0.0005
0.1665 0.4146 0.0020
0.2245 0.4186 0.0040
0.2742 0.4227 0.0067
0.3209 0.4273 0.0201
0.3648 0.4324 0.0456
0.4082 0.4378 0.0656
0.4512 0.4435 0.0796
0.4937 0.4476 0.0759
0.5362 0.4499 0.0539
0.5775 0.4519 0.0331
0.6190 0.4538 0.0126
0.6557 0.4555 0.0046
0.6924 0.4568 0.0000
0.7284 0.4570 0.0000
0.7638 0.4567 0.0000
0.7987 0.4548 0.0000
0.8333 0.4513 0.0000
0.8685 0.4465 0.0000
0.9034 0.4407 0.0000
0.9364 0.4304 0.0000
0.9546 0.4093 0.0000
0.9524 0.3786 0.0000
0.9564 0.3954 0.0000
0.0000 0.4098 0.0000
0.0000 0.4109 0.0000
0.0000 0.4120 0.0000
0.0000 0.4133 0.0000
0.0000 0.4150 0.0000
0.0000 0.4170 0.0000
0.0000 0.4193 0.0000
0.0000 0.4220 0.0000
0.0000 0.4253 0.0000
0.0016 0.4287 0.0000
0.0290 0.4330 0.0000
0.0693 0.4370 0.0000
0.1388 0.4408 0.0000
0.2004 0.4444 0.0000
0.2533 0.4479 0.0000
0.3024 0.4518 0.0098
0.3478 0.4564 0.0305
0.3921 0.4615 0.0476
0.4354 0.4674 0.0607
0.4786 0.4721 0.0565
0.5219 0.4755 0.0341
0.5650 0.4780 0.0165
0.6090 0.4798 0.0016
0.6477 0.4813 0.0000
0.6863 0.4827 0.0000
0.7239 0.4837 0.0000
0.7604 0.4845 0.0000
0.7964 0.4837 0.0000
0.8321 0.4810 0.0000
0.8683 0.4765 0.0000
0.9038 0.4709 0.0000
0.9378 0.4604 0.0000
0.9578 0.4375 0.0000
0.9559 0.4074 0.0000
0.9587 0.4166 0.0000
0.0000 0.4361 0.0000
0.0000 0.4371 0.0000
0.0000 0.4382 0.0000
0.0000 0.4394 0.0000
0.0000 0.4410 0.0000
0.0000 0.4430 0.0000
0.0000 0.4453 0.0000
0.0000 0.4479 0.0000
0.0000 0.4511 0.0000
0.0004 0.4546 0.0000
0.0080 0.4598 0.0000
0.0353 0.4645 0.0000
0.1053 0.4682 0.0000
0.1696 0.4714 0.0000
0.2281 0.4739 0.0000
0.2814 0.4768 0.0027
0.3298 0.4802 0.0084
0.3763 0.4842 0.0132
0.4211 0.4890 0.0168
0.4646 0.4946 0.0156
0.5071 0.5014 0.0094
0.5508 0.5054 0.0046
0.5963 0.5079 0.0004
0.6372 0.5096 0.0000
0.6780 0.5112 0.0000
0.7175 0.5131 0.0000
0.7556 0.5139 0.0000
0.7930 0.5131 0.0000
0.8299 0.5107 0.0000
0.8672 0.5060 0.0000
0.9040 0.4999 0.0000
0.9387 0.4903 0.0000
0.9601 0.4705 0.0000
0.9590 0.4400 0.0000
0.9605 0.4443 0.0000
0.0000 0.4636 0.0000
0.0000 0.4645 0.0000
0.0000 0.4654 0.0000
0.0000 0.4665 0.0000
0.0000 0.4679 0.0000
0.0000 0.4697 0.0000
0.0000 0.4717 0.0000
0.0000 0.4741 0.0000
0.0000 0.4770 0.0000
0.0000 0.4801 0.0000
0.0000 0.4848 0.0000
0.0161 0.4891 0.0000
0.0669 0.4927 0.0000
0.1255 0.4964 0.0000
0.1946 0.5001 0.0000
0.2550 0.5035 0.0000
0.3065 0.5066 0.0000
0.3557 0.5100 0.0000
0.4025 0.5137 0.0000
0.4476 0.5189 0.0000
0.4913 0.5256 0.0000
0.5361 0.5302 0.0000
0.5829 0.5335 0.0000
0.6254 0.5359 0.0000
0.6679 0.5384 0.0000
0.7093 0.5411 0.0000
0.7491 0.5423 0.0000
0.7880 0.5423 0.0000
0.8261 0.5408 0.0000
0.8647 0.5370 0.0000
0.9028 0.5312 0.0000
0.9385 0.5222 0.0000
0.9621 0.5037 0.0000
0.9620 0.4713 0.0000
0.9628 0.4693 0.0000
0.0000 0.4927 0.0000
0.0000 0.4934 0.0000
0.0000 0.4941 0.0000
0.0000 0.4950 0.0000
0.0000 0.4960 0.0000
0.0000 0.4974 0.0000
0.0000 0.4991 0.0000
0.0000 0.5012 0.0000
0.0000 0.5036 0.0000
0.0000 0.5061 0.0000
0.0000 0.5092 0.0000
0.0059 0.5124 0.0000
0.0245 0.5159 0.0000
0.0718 0.5207 0.0000
0.1549 0.5271 0.0000
0.2243 0.5320 0.0000
0.2794 0.5353 0.0000
0.3315 0.5383 0.0000
0.3808 0.5410 0.0000
0.4283 0.5447 0.0000
0.4744 0.5495 0.0000
0.5209 0.5539 0.0000
0.5688 0.5580 0.0000
0.6125 0.5618 0.0000
0.6565 0.5655 0.0000
0.6998 0.5688 0.0000
0.7415 0.5709 0.0000
0.7819 0.5722 0.0000
0.8213 0.5720 0.0000
0.8611 0.5698 0.0000
0.9007 0.5648 0.0000
0.9377 0.5561 0.0000
0.9640 0.5380 0.0000
0.9652 0.5026 0.0000
0.9654 0.4932 0.0000
0.0000 0.5214 0.0000
0.0000 0.5228 0.0000
0.0000 0.5241 0.0000
0.0000 0.5253 0.0000
0.0000 0.5265 0.0000
0.0000 0.5278 0.0000
0.0000 0.5293 0.0000
0.0000 0.5310 0.0000
0.0000 0.5329 0.0000
0.0000 0.5348 0.0000
0.0000 0.5372 0.0000
0.0021 0.5399 0.0000
0.0088 0.5431 0.0000
0.0453 0.5471 0.0000
0.1186 0.5520 0.0000
0.1864 0.5563 0.0000
0.2489 0.5598 0.0000
0.3059 0.5633 0.0000
0.3573 0.5666 0.0000
0.4074 0.5704 0.0000
0.4566 0.5747 0.0000
0.5048 0.5789 0.0000
0.5535 0.5833 0.0000
0.5976 0.5875 0.0000
0.6423 0.5916 0.0000
0.6874 0.5951 0.0000
0.7310 0.5979 0.0000
0.7736 0.5999 0.0000
0.8150 0.6009 0.0000
0.8562 0.6002 0.0000
0.8972 0.5971 0.0000
0.9359 0.5896 0.0000
0.9648 0.5727 0.0000
0.9677 0.5371 0.0000
0.9677 0.5216 0.0000
0.0000 0.5502 0.0000
0.0000 0.5519 0.0000
0.0000 0.5535 0.0000
0.0000 0.5550 0.0000
0.0000 0.5564 0.0000
0.0000 0.5578 0.0000
0.0000 0.5592 0.0000
0.0000 0.5607 0.0000
0.0000 0.5624 0.0000
0.0000 0.5641 0.0000
0.0000 0.5662 0.0000
0.0000 0.5686 0.0000
0.0000 0.5715 0.0000
0.0224 0.5747 0.0000
0.0726 0.5781 0.0000
0.1347 0.5816 0.0000
0.2105 0.5852 0.0000
0.2759 0.5890 0.0000
0.3300 0.5930 0.0000
0.3832 0.5970 0.0000
0.4361 0.6009 0.0000
0.4862 0.6050 0.0000
0.5359 0.6094 0.0000
0.5806 0.6138 0.0000
0.6263 0.6181 0.0000
0.6732 0.6218 0.0000
0.7188 0.6252 0.0000
0.7637 0.6280 0.0000
0.8074 0.6300 0.0000
0.8503 0.6309 0.0000
0.8930 0.6299 0.0000
0.9334 0.6241 0.0000
0.9652 0.6087 0.0000
0.9701 0.5737 0.0000
0.9699 0.5524 0.0000
0.0000 0.5775 0.0000
0.0000 0.5786 0.0000
0.0000 0.5797 0.0000
0.0000 0.5810 0.0000
0.0000 0.5825 0.0000
0.0000 0.5841 0.0000
0.0000 0.5859 0.0000
0.0000 0.5878 0.0000
0.0000 0.5900 0.0000
0.0000 0.5922 0.0000
0.0000 0.5947 0.0000
0.0000 0.5972 0.0000
0.0000 0.5999 0.0000
0.0017 0.6028 0.0000
0.0057 0.6059 0.0000
0.0558 0.6091 0.0000
0.1571 0.6125 0.0000
0.2377 0.6162 0.0000
0.2957 0.6202 0.0000
0.3532 0.6240 0.0000
0.4108 0.6277 0.0000
0.4633 0.6316 0.0000
0.5139 0.6359 0.0000
0.5602 0.6401 0.0000
0.6077 0.6443 0.0000
