HypnoCore/Renderer/Effects/Library/BundledLUTs/Classic Chrome.cube
#Created by: Pixelmator Pro
#Color profile: "Display P3"
TITLE "classic chrome"
LUT_3D_SIZE 7
DOMAIN_MIN 0.000000 0.000000 0.000000
DOMAIN_MAX 0.882353 0.882353 0.882353
0.0000 0.0000 0.0000
0.0646 0.0021 0.0000
0.2298 0.0195 0.0000
0.4140 0.0495 0.0089
0.5652 0.0798 0.0150
0.7097 0.0880 0.0000
0.8539 0.0536 0.0000
0.0000 0.0436 0.0000
0.0577 0.0566 0.0077
0.2351 0.0812 0.0104
0.4223 0.1037 0.0060
0.5768 0.1243 0.0022
0.7203 0.1370 0.0000
0.8646 0.1299 0.0000
0.0000 0.1647 0.0000
0.0079 0.1727 0.0147
0.2071 0.1994 0.0270
0.4176 0.2261 0.0416
0.5844 0.2352 0.0220
0.7342 0.2332 0.0000
0.8819 0.2238 0.0000
0.0000 0.3063 0.0000
0.0000 0.3137 0.0000
0.1165 0.3312 0.0174
0.3669 0.3555 0.0577
0.5693 0.3739 0.0674
0.7364 0.3730 0.0005
0.8995 0.3483 0.0000
0.0000 0.4361 0.0000
0.0000 0.4430 0.0000
0.0080 0.4598 0.0000
0.2814 0.4768 0.0027
0.5071 0.5014 0.0094
0.7175 0.5131 0.0000
0.9040 0.4999 0.0000
0.0000 0.5775 0.0000
0.0000 0.5841 0.0000
0.0000 0.5947 0.0000
0.0558 0.6091 0.0000
0.4108 0.6277 0.0000
0.6566 0.6482 0.0000
0.8877 0.6625 0.0000
0.0000 0.7423 0.0000
0.0000 0.7463 0.0000
0.0000 0.7531 0.0000
0.0000 0.7614 0.0000
0.0607 0.7725 0.0000
0.4872 0.7893 0.0000
0.8184 0.8102 0.0000
0.0025 0.0020 0.0470
0.0898 0.0172 0.0754
0.2650 0.0471 0.1059
0.4359 0.0816 0.1359
0.5835 0.1128 0.1605
0.7230 0.1329 0.1645
0.8614 0.1078 0.0550
0.0024 0.0676 0.0639
0.0874 0.0894 0.0882
0.2572 0.1217 0.1224
0.4344 0.1538 0.1575
0.5940 0.1665 0.1689
0.7303 0.1651 0.1552
0.8716 0.1599 0.0507
0.0000 0.1898 0.0796
0.0358 0.2056 0.0936
0.2360 0.2361 0.1223
0.4229 0.2647 0.1507
0.5941 0.2743 0.1652
0.7420 0.2605 0.1555
0.8899 0.2335 0.0534
0.0000 0.3281 0.0861
0.0000 0.3403 0.0988
0.1651 0.3587 0.1187
0.3878 0.3813 0.1468
0.5761 0.4026 0.1627
0.7437 0.3968 0.1555
0.9069 0.3624 0.0821
0.0000 0.4558 0.0731
0.0000 0.4664 0.0879
0.0134 0.4783 0.1050
0.3085 0.4972 0.1304
0.5331 0.5204 0.1535
0.7271 0.5379 0.1486
0.9092 0.5154 0.1118
0.0000 0.5912 0.0368
0.0000 0.5982 0.0397
0.0000 0.6088 0.0430
0.0555 0.6241 0.0449
0.4199 0.6428 0.1001
0.6717 0.6630 0.1102
0.8921 0.6767 0.0806
0.0000 0.7498 0.0000
0.0000 0.7540 0.0000
0.0000 0.7606 0.0000
0.0000 0.7683 0.0000
0.0273 0.7803 0.0000
0.5007 0.7975 0.0000
0.8277 0.8167 0.0022
0.0080 0.0114 0.1915
0.0996 0.0213 0.2161
0.2997 0.0603 0.2631
0.4689 0.0977 0.2831
0.6083 0.1279 0.2984
0.7360 0.1468 0.3189
0.8792 0.1701 0.3264
0.0092 0.1056 0.2135
0.1218 0.1293 0.2351
0.2881 0.1577 0.2659
0.4534 0.1902 0.2969
0.6009 0.2210 0.3290
0.7398 0.2424 0.3552
0.8898 0.2248 0.3378
0.0000 0.2291 0.2218
0.0621 0.2439 0.2387
0.2660 0.2678 0.2662
0.4405 0.2943 0.2948
0.5957 0.3211 0.3264
0.7443 0.3524 0.3660
0.9021 0.3073 0.3319
0.0000 0.3588 0.2266
0.0000 0.3676 0.2376
0.2033 0.3847 0.2599
0.4083 0.4085 0.2888
0.5778 0.4329 0.3181
0.7422 0.4530 0.3466
0.9108 0.4251 0.3259
0.0000 0.4805 0.2311
0.0000 0.4862 0.2390
0.0848 0.5003 0.2581
0.3529 0.5250 0.2855
0.5480 0.5459 0.3133
0.7258 0.5700 0.3449
0.9062 0.5589 0.3194
0.0000 0.6105 0.2332
0.0000 0.6179 0.2389
0.0000 0.6305 0.2504
0.1774 0.6442 0.2703
0.4753 0.6616 0.3097
0.6911 0.6821 0.3304
0.8887 0.6996 0.3265
0.0000 0.7619 0.2221
0.0000 0.7662 0.2206
0.0000 0.7728 0.2107
0.0000 0.7803 0.1959
0.0923 0.7918 0.1949
0.5393 0.8093 0.2623
0.8400 0.8265 0.2845
0.0000 0.0195 0.3453
0.1038 0.0324 0.3688
0.2936 0.0680 0.4029
0.4841 0.1138 0.4410
0.6274 0.1466 0.4533
0.7470 0.1701 0.4589
0.8878 0.1957 0.4699
0.0031 0.1324 0.3654
0.1478 0.1653 0.3874
0.3148 0.1904 0.4124
0.4746 0.2238 0.4369
0.6173 0.2522 0.4611
0.7522 0.2702 0.4844
0.8998 0.2820 0.5022
0.0000 0.2651 0.3765
0.1113 0.2797 0.3913
0.2953 0.3027 0.4128
0.4587 0.3290 0.4361
0.6094 0.3559 0.4652
0.7551 0.3914 0.4948
0.9080 0.4200 0.5403
0.0000 0.3863 0.3758
0.0043 0.3943 0.3864
0.2423 0.4109 0.4086
0.4313 0.4335 0.4317
0.5949 0.4541 0.4570
0.7496 0.4776 0.4828
0.9071 0.5227 0.5390
0.0000 0.5031 0.3744
0.0000 0.5099 0.3835
0.1120 0.5247 0.4025
0.3732 0.5423 0.4228
0.5623 0.5611 0.4499
0.7317 0.5818 0.4758
0.8981 0.6152 0.5238
0.0000 0.6280 0.3706
0.0000 0.6346 0.3778
0.0000 0.6449 0.3944
0.2578 0.6579 0.4148
0.4938 0.6745 0.4459
0.6986 0.6940 0.4701
0.8811 0.7207 0.5142
0.0000 0.7730 0.3712
0.0000 0.7776 0.3756
0.0000 0.7844 0.3819
0.0000 0.7912 0.3878
0.2176 0.8022 0.4013
0.5884 0.8191 0.4476
0.8517 0.8382 0.4691
0.0000 0.0304 0.4782
0.1064 0.0443 0.5071
0.2928 0.0721 0.5381
0.4729 0.1153 0.5703
0.6327 0.1615 0.5985
0.7630 0.1956 0.6090
0.8976 0.2098 0.6079
0.0000 0.1488 0.5032
0.1453 0.1799 0.5263
0.3239 0.2017 0.5506
0.4932 0.2422 0.5740
0.6350 0.2766 0.5975
0.7648 0.3033 0.6128
0.9073 0.3068 0.6287
0.0000 0.3055 0.5197
0.1671 0.3315 0.5365
0.3321 0.3497 0.5563
0.4859 0.3683 0.5747
0.6276 0.3936 0.5934
0.7631 0.4230 0.6152
0.9108 0.4552 0.6517
0.0000 0.4178 0.5189
0.0468 0.4286 0.5307
0.2795 0.4443 0.5512
0.4540 0.4625 0.5695
0.6097 0.4826 0.5876
0.7547 0.5118 0.6115
0.9086 0.5581 0.6560
0.0000 0.5313 0.5156
0.0000 0.5359 0.5236
0.1762 0.5468 0.5418
0.4044 0.5622 0.5607
0.5797 0.5804 0.5800
0.7399 0.5984 0.6024
0.9006 0.6322 0.6398
0.0000 0.6457 0.5079
0.0000 0.6506 0.5153
0.0024 0.6595 0.5310
0.2924 0.6718 0.5495
0.5106 0.6866 0.5704
0.7053 0.7026 0.5934
0.8839 0.7275 0.6318
0.0000 0.7816 0.4954
0.0000 0.7850 0.5004
0.0000 0.7903 0.5104
0.0018 0.7977 0.5289
0.3246 0.8096 0.5506
0.6227 0.8251 0.5816
0.8571 0.8479 0.6173
0.0000 0.0536 0.6203
0.1126 0.0691 0.6404
0.2923 0.0911 0.6720
0.4672 0.1221 0.7002
0.6206 0.1599 0.7224
0.7686 0.2064 0.7455
0.9085 0.2538 0.7523
0.0000 0.1695 0.6408
0.1298 0.1845 0.6590
0.3142 0.2098 0.6837
0.4815 0.2422 0.7062
0.6356 0.2818 0.7250
0.7772 0.3233 0.7457
0.9153 0.3518 0.7568
0.0000 0.3374 0.6610
0.2076 0.3787 0.6783
0.3688 0.3971 0.6958
0.5118 0.4111 0.7110
0.6469 0.4347 0.7247
0.7762 0.4640 0.7406
0.9180 0.4840 0.7601
0.0000 0.4673 0.6659
0.1595 0.4807 0.6781
0.3401 0.4970 0.6933
0.4925 0.5159 0.7069
0.6310 0.5312 0.7196
0.7651 0.5583 0.7346
0.9141 0.5918 0.7599
0.0000 0.5622 0.6633
0.0072 0.5684 0.6716
0.2641 0.5794 0.6848
0.4450 0.5940 0.6989
0.5983 0.6103 0.7130
0.7479 0.6324 0.7285
0.9051 0.6677 0.7549
0.0000 0.6665 0.6535
0.0000 0.6708 0.6597
0.0442 0.6800 0.6713
0.3425 0.6911 0.6863
0.5377 0.7040 0.7025
0.7200 0.7200 0.7197
0.8903 0.7402 0.7462
0.0000 0.7935 0.6388
0.0000 0.7963 0.6442
0.0000 0.8009 0.6528
0.0036 0.8091 0.6664
0.3651 0.8208 0.6850
0.6292 0.8346 0.7081
0.8589 0.8556 0.7386
0.0000 0.1115 0.7789
0.1215 0.1199 0.7945
0.2997 0.1361 0.8179
0.4662 0.1600 0.8414
0.6147 0.1885 0.8609
0.7574 0.2167 0.8781
0.9150 0.2893 0.9003
0.0000 0.2124 0.7950
0.1238 0.2206 0.8080
0.3167 0.2330 0.8274
0.4797 0.2542 0.8480
0.6279 0.2807 0.8649
0.7690 0.3158 0.8801
0.9237 0.3923 0.8991
0.0000 0.3614 0.8092
0.1518 0.3777 0.8210
0.3525 0.4043 0.8377
0.5094 0.4160 0.8534
0.6502 0.4445 0.8654
0.7822 0.4737 0.8772
0.9289 0.5365 0.8938
0.0000 0.5066 0.8177
0.2483 0.5416 0.8291
0.4305 0.5758 0.8433
0.5507 0.5808 0.8539
0.6690 0.5864 0.8616
0.7870 0.6095 0.8706
0.9257 0.6578 0.8870
0.0046 0.6209 0.8210
0.2057 0.6396 0.8286
0.3865 0.6578 0.8386
0.5269 0.6690 0.8475
0.6546 0.6775 0.8555
0.7756 0.6959 0.8653
0.9166 0.7354 0.8819
0.0000 0.7066 0.8127
0.0094 0.7118 0.8181
0.2771 0.7193 0.8273
0.4471 0.7302 0.8377
0.5977 0.7438 0.8485
0.7455 0.7594 0.8608
0.8998 0.7865 0.8776
0.0000 0.8171 0.7956
0.0000 0.8184 0.7987
0.0000 0.8237 0.8074
0.1946 0.8315 0.8206
0.4539 0.8409 0.8342
0.6639 0.8533 0.8505
0.8732 0.8733 0.8730
