HypnoCore/Renderer/Effects/Library/BundledLUTs/Classic Chrome.cube
#Created by: Pixelmator Pro
#Color profile: "Display P3"
TITLE "classic chrome"
LUT_3D_SIZE 5
DOMAIN_MIN 0.000000 0.000000 0.000000
DOMAIN_MAX 0.823529 0.823529 0.823529
0.0000 0.0000 0.0000
0.1200 0.0058 0.0000
0.3801 0.0430 0.0059
0.5957 0.0817 0.0089
0.7932 0.0768 0.0000
0.0000 0.0829 0.0000
0.1091 0.1050 0.0154
0.3890 0.1405 0.0183
0.6109 0.1600 0.0004
0.8096 0.1645 0.0000
0.0000 0.2789 0.0000
0.0039 0.2924 0.0057
0.3367 0.3265 0.0560
0.6082 0.3491 0.0535
0.8303 0.3312 0.0000
0.0000 0.4636 0.0000
0.0000 0.4741 0.0000
0.1946 0.5001 0.0000
0.5361 0.5302 0.0000
0.8261 0.5408 0.0000
0.0000 0.6715 0.0000
0.0000 0.6800 0.0000
0.0000 0.6943 0.0000
0.3341 0.7157 0.0000
0.7501 0.7428 0.0000
0.0057 0.0053 0.0949
0.1680 0.0307 0.1434
0.4165 0.0825 0.1807
0.6223 0.1206 0.2124
0.8089 0.1423 0.2185
0.0000 0.1275 0.1219
0.1552 0.1562 0.1557
0.4064 0.1975 0.1999
0.6245 0.2397 0.2483
0.8227 0.2110 0.2127
0.0000 0.3142 0.1364
0.0435 0.3341 0.1554
0.3671 0.3657 0.1973
0.6119 0.3978 0.2327
0.8395 0.3761 0.2085
0.0000 0.4940 0.1415
0.0000 0.5072 0.1562
0.2509 0.5280 0.1856
0.5698 0.5586 0.2226
0.8309 0.5732 0.2181
0.0000 0.6880 0.1038
0.0000 0.6968 0.0986
0.0000 0.7096 0.0903
0.3556 0.7321 0.1178
0.7691 0.7578 0.1772
0.0010 0.0175 0.3171
0.1733 0.0413 0.3527
0.4506 0.1037 0.4079
0.6464 0.1474 0.4239
0.8252 0.1819 0.4363
0.0034 0.1823 0.3433
0.2055 0.2145 0.3711
0.4333 0.2540 0.4041
0.6381 0.2945 0.4455
0.8394 0.3283 0.4894
0.0000 0.3566 0.3469
0.1043 0.3715 0.3659
0.4007 0.4020 0.4012
0.6262 0.4325 0.4375
0.8403 0.4820 0.4964
0.0000 0.5226 0.3464
0.0000 0.5324 0.3615
0.3084 0.5571 0.3900
0.5853 0.5837 0.4285
0.8233 0.6170 0.4721
0.0000 0.7086 0.3440
0.0000 0.7170 0.3517
0.0000 0.7293 0.3699
0.4482 0.7498 0.4097
0.7872 0.7772 0.4505
0.0000 0.0327 0.5058
0.1772 0.0551 0.5462
0.4391 0.1042 0.5901
0.6603 0.1701 0.6286
0.8421 0.2111 0.6368
0.0000 0.2194 0.5410
0.2458 0.2695 0.5705
0.4639 0.2982 0.5978
0.6639 0.3395 0.6260
0.8482 0.3721 0.6529
0.0000 0.4029 0.5490
0.1874 0.4230 0.5683
0.4345 0.4501 0.5940
0.6459 0.4796 0.6181
0.8451 0.5255 0.6565
0.0000 0.5582 0.5438
0.0000 0.5665 0.5574
0.3538 0.5848 0.5821
0.6078 0.6087 0.6085
0.8301 0.6369 0.6423
0.0000 0.7253 0.5301
0.0000 0.7312 0.5402
0.0487 0.7436 0.5615
0.4838 0.7621 0.5909
0.7897 0.7864 0.6308
0.0000 0.0824 0.7113
0.1854 0.0987 0.7394
0.4295 0.1344 0.7771
0.6459 0.1745 0.8040
0.8513 0.2502 0.8334
0.0000 0.2509 0.7371
0.2076 0.2702 0.7585
0.4605 0.3023 0.7862
0.6690 0.3440 0.8087
0.8626 0.4189 0.8303
0.0000 0.4670 0.7537
0.3017 0.5155 0.7736
0.5053 0.5337 0.7909
0.6828 0.5507 0.8041
0.8581 0.5957 0.8209
0.0000 0.6103 0.7531
0.1830 0.6234 0.7644
0.4372 0.6421 0.7792
0.6420 0.6634 0.7952
0.8407 0.6953 0.8147
0.0000 0.7536 0.7366
0.0000 0.7587 0.7442
0.2146 0.7696 0.7608
0.5347 0.7849 0.7804
0.8059 0.8061 0.8061
