HypnoCore/Renderer/Effects/Library/BundledLUTs/Kodak_2383_D60_Rec.709_2.4_IF_MY_ANY_LUT_IS_HELPFUL_PLEASE_ADD_ME_ON_IG__ashikulislam3251.cube
TITLE "Generated by Resolve"
LUT_3D_SIZE 33
0.000946059 0.00927749 0.0165713
0.0089723 0.0117647 0.0176394
0.0225528 0.0147402 0.0183719
0.0441901 0.018265 0.0187381
0.0605173 0.0223087 0.0183871
0.0748455 0.0268559 0.0178836
0.0992447 0.0296178 0.0164492
0.131426 0.031632 0.0132601
0.162737 0.033402 0.00933852
0.192432 0.0346532 0.0043183
0.221607 0.0349126 0
0.25362 0.0329747 0
0.287526 0.0308385 0
0.32343 0.0285344 0
0.359258 0.024155 0
0.392828 0.0174868 0
0.423224 0.00630198 0
0.450858 0 0
0.477165 0 0
0.503029 0 0
0.528542 0 0
0.553246 0 0
0.575769 0 0
0.597162 0 0
0.615213 0 0
0.631983 0 0
0.647883 0 0
0.662913 0 0
0.677028 0 0
0.689708 0 0
0.701183 0 0
0.712825 0 0
0.724514 0 0
0 0.0187839 0.0208591
0.0110323 0.0222477 0.0222019
0.0250401 0.0255131 0.0229953
0.0474708 0.0288243 0.0229191
0.0657359 0.0330053 0.0225681
0.0807507 0.0373693 0.0221408
0.107561 0.041062 0.0203708
0.141711 0.0436561 0.0171511
0.175265 0.0464332 0.0123445
0.207172 0.0489357 0.00602731
0.238132 0.0507057 0
0.271595 0.0500191 0
0.306813 0.0492714 0
0.343999 0.0483864 0
0.381094 0.0458534 0
0.414954 0.0426337 0
0.446525 0.0383917 0
0.474647 0.0334478 0
0.501213 0.0269627 0
0.526284 0.0099031 0
0.551232 0 0
0.575738 0 0
0.598352 0 0
0.619821 0 0
0.63772 0 0
0.654185 0 0
0.669627 0 0
0.684108 0 0
0.697704 0 0
0.70988 0 0
0.72076 0 0
0.731792 0 0
0.742779 0 0
0 0.0289006 0.0245975
0.0103304 0.0323339 0.0257725
0.0251316 0.0357214 0.0263828
0.0488136 0.0394293 0.0263828
0.0694438 0.0441901 0.0259403
0.0855421 0.0487831 0.0253758
0.113771 0.0533303 0.0236362
0.149691 0.0567788 0.0200656
0.184833 0.0599222 0.014847
0.218387 0.0627451 0.00733959
0.250385 0.064622 0
0.28513 0.0652781 0
0.321553 0.0659953 0
0.359594 0.0664836 0
0.39707 0.0661784 0
0.432013 0.0654612 0
0.46421 0.0633707 0
0.493034 0.060441 0
0.520058 0.0559701 0
0.545342 0.0494087 0
0.570153 0.0416266 0
0.593957 0.0226139 0
0.615793 0.00782788 0
0.636667 0 0
0.6542 0 0
0.670146 0 0
0.6851 0 0
0.699184 0 0
0.712459 0 0
0.724392 0 0
0.735058 0 0
0.745846 0 0
0.756863 0 0
0 0.0429999 0.0278935
6.10361e-05 0.0469825 0.0289464
0.0201572 0.0507668 0.0294194
0.0485542 0.0548714 0.029221
0.0698711 0.0599527 0.0287327
0.0888991 0.0655375 0.0278325
0.118196 0.0702068 0.0258946
0.15584 0.0743572 0.021973
0.192813 0.078294 0.0159609
0.227802 0.0818952 0.00672923
0.260945 0.0847181 0
0.297032 0.0869612 0
0.334508 0.089128 0
0.373342 0.0910353 0
0.411139 0.0921035 0
0.446921 0.0928206 0
0.479805 0.0924849 0
0.509163 0.0916762 0
0.536599 0.0901808 0
0.562127 0.0866712 0
0.587137 0.082826 0
0.611048 0.0777447 0
0.6327 0.0722972 0
0.653132 0.0658579 0
0.670024 0.056733 0
0.685359 0.0455177 0
0.699611 0.0328679 0
0.7131 0.0261997 0
0.725963 0.0254368 0
0.737697 0.0261387 0
0.748363 0.0288701 0
0.759411 0.0355383 0
0.771328 0.0661326 0
0 0.0569162 0.0325933
0 0.0607462 0.0327764
0.0149691 0.0647288 0.0327153
0.0478676 0.0692607 0.0324865
0.0715648 0.074815 0.0318456
0.0916457 0.0808576 0.0305943
0.123415 0.0864271 0.0283513
0.162432 0.0911421 0.0243381
0.200855 0.0957046 0.0178531
0.2374 0.100099 0.00769055
0.271977 0.104036 0
0.309285 0.107561 0
0.347784 0.110918 0
0.387228 0.113741 0
0.425574 0.115999 0
0.462226 0.117845 0
0.495918 0.119005 0
0.525841 0.119341 0
0.55375 0.119005 0
0.579522 0.117327 0
0.604746 0.115282 0
0.628794 0.112367 0
0.650584 0.109514 0
0.671138 0.106569 0
0.688121 0.103761 0
0.70341 0.100908 0
0.717494 0.0978408 0
0.730571 0.0948501 0
0.743114 0.0937667 0
0.754681 0.0955825 0
0.765332 0.100496 0
0.776608 0.109575 0
0.789105 0.125795 0
0 0.0699168 0.0371099
0 0.0737621 0.0370642
0 0.077821 0.0367742
0.047364 0.0827039 0.0363012
0.0734875 0.0886854 0.0348669
0.0943465 0.0953078 0.033753
0.128466 0.10164 0.0310216
0.169574 0.10721 0.0268406
0.209598 0.112428 0.0194858
0.247227 0.117342 0.00799573
0.283055 0.121798 0
0.321447 0.126146 0
0.360922 0.13048 0
0.40087 0.134722 0
0.440208 0.137987 0
0.477745 0.140795 0
0.512306 0.142794 0
0.542794 0.143999 0
0.571252 0.144793 0
0.597284 0.144259 0
0.622721 0.143313 0
0.646937 0.141527 0
0.668849 0.139742 0
0.689509 0.137972 0
0.706569 0.136477 0
0.721874 0.134798 0
0.735943 0.133043 0
0.748974 0.131518 0
0.76141 0.131594 0
0.772854 0.134081 0
0.783276 0.13875 0
0.794507 0.147326 0
0.807431 0.165515 0
0 0.0886397 0.0407111
0 0.092958 0.0402686
0 0.0974594 0.0398718
0.0348211 0.102708 0.0388647
0.0713359 0.109468 0.0372778
0.0955215 0.116838 0.0351263
0.131426 0.123964 0.0320897
0.175036 0.130297 0.0266117
0.217258 0.136385 0.0178378
0.256641 0.142214 0.00251774
0.294087 0.147784 0
0.334295 0.154116 0
0.374792 0.159487 0
0.414984 0.164324 0
0.455299 0.168429 0
0.493629 0.172015 0
0.529107 0.175143 0
0.560113 0.17734 0
0.589075 0.179171 0
0.615412 0.179629 0
0.641062 0.179446 0
0.665476 0.178592 0
0.68751 0.177615 0
0.708293 0.176684 0
0.725475 0.176226 0
0.74081 0.175296 0
0.754879 0.17435 0
0.767865 0.17377 0
0.78027 0.174655 0
0.791577 0.177081 0
0.801816 0.181781 0
0.813001 0.191012 0
0.826185 0.208957 0
0 0.111879 0.0440833
0 0.117388 0.0435798
0 0.122621 0.0424048
0.0137484 0.128191 0.0398566
0.0624094 0.135698 0.0374762
0.0920729 0.143999 0.0345922
0.132555 0.152132 0.029984
0.179522 0.159609 0.021149
0.223972 0.166629 0.00471504
0.265583 0.173922 0
0.30544 0.181491 0
0.34725 0.189166 0
0.388434 0.195499 0
0.429145 0.201053 0
0.470588 0.206287 0
0.509636 0.210636 0
0.545876 0.214694 0
0.577462 0.2177 0
0.606851 0.220218 0
0.6336 0.221576 0
0.659495 0.222126 0
0.684138 0.222217 0
0.706371 0.222019 0
0.727291 0.221729 0
0.744579 0.221805 0
0.75996 0.221485 0
0.774014 0.221042 0
0.786969 0.220935 0
0.799329 0.22211 0
0.810575 0.224872 0
0.820676 0.229877 0
0.8318 0.23888 0
0.84506 0.256718 0
0 0.135302 0.0472267
0 0.141939 0.0464637
0 0.148058 0.0444343
0 0.154131 0.0405127
0.0475013 0.16228 0.0367132
0.0864729 0.171542 0.0328374
0.131685 0.180667 0.0265812
0.182223 0.189029 0.0103914
0.230854 0.198123 1.5259e-05
0.274571 0.206653 0
0.316747 0.215961 0
0.359869 0.224567 0
0.40174 0.231891 0
0.443305 0.238056 0
0.485664 0.243931 0
0.525551 0.248966 0
0.562371 0.253468 0
0.59469 0.25716 0
0.624475 0.260136 0
0.651637 0.262074 0
0.677852 0.263279 0
0.702739 0.263905 0
0.725246 0.264469 0
0.746303 0.264668 0
0.763699 0.265064 0
0.779141 0.265156 0
0.793179 0.265064 0
0.806104 0.265232 0
0.818418 0.26656 0
0.829633 0.269718 0
0.839719 0.275166 0
0.850782 0.284291 0
0.863935 0.302327 0
0 0.158053 0.0500038
0 0.165667 0.0487221
0 0.172747 0.0455787
0 0.179507 0.0407263
0.0238499 0.188235 0.0351263
0.0778058 0.198444 0.0297704
0.129381 0.208515 0.0204471
0.18407 0.218051 1.5259e-05
0.235874 0.228367 0
0.283284 0.23888 0
0.327535 0.249378 0
0.371908 0.25864 0
0.414618 0.266743 0
0.457115 0.273564 0
0.500206 0.279911 0
0.541131 0.285695 0
0.578485 0.290562 0
0.611353 0.294667 0
0.641703 0.2981 0
0.669139 0.300343 0
0.695888 0.302281 0
0.720989 0.303288 0
0.743725 0.304234 0
0.765042 0.304982 0
0.782544 0.305623 0
0.798047 0.305943 0
0.812116 0.306096 0
0.82501 0.306447 0
0.837293 0.307927 0
0.848508 0.311421 0
0.858579 0.317174 0
0.869596 0.326802 0
0.882521 0.345098 0
0 0.180331 0.0523995
0 0.188769 0.0501869
0 0.196674 0.0462196
0 0.204349 0.0401007
0 0.213642 0.03299
0.0640879 0.224704 0.0252689
0.125414 0.23566 0.010132
0.185306 0.246448 0
0.240833 0.258198 0
0.291096 0.270222 0
0.337636 0.281819 0
0.3832 0.291691 0
0.426612 0.300374 0
0.47039 0.308019 0
0.514153 0.314748 0
0.55584 0.321004 0
0.594156 0.326543 0
0.627466 0.330983 0
0.658381 0.33492 0
0.686107 0.337407 0
0.713115 0.33959 0
0.738735 0.341268 0
0.761715 0.34255 0
0.783291 0.343664 0
0.800931 0.344579 0
0.816526 0.345083 0
0.83064 0.345388 0
0.843503 0.345861 0
0.855772 0.347539 0
0.867048 0.351247 0
0.877073 0.357061 0
0.887984 0.366934 0
0.900649 0.385458 0
0 0.203601 0.0523995
0 0.213321 0.049897
0 0.222156 0.0450446
0 0.230686 0.0374762
0 0.24065 0.0272526
0.0370947 0.252003 0.0136721
0.118898 0.264424 0
0.186236 0.277775 0
0.245441 0.290608 0
0.298024 0.303456 0
0.346288 0.31577 0
0.39324 0.326772 0
0.437613 0.336004 0
0.482246 0.344137 0
0.527352 0.351812 0
0.569619 0.358419 0
0.608759 0.364553 0
0.642695 0.369528 0
0.673991 0.37377 0
0.702327 0.376913 0
0.729534 0.379294 0
0.755398 0.381216 0
0.778714 0.382895 0
0.800488 0.384222 0
0.818372 0.385412 0
0.834012 0.385931 0
0.848142 0.386282 0
0.861036 0.386831 0
0.873365 0.388525 0
0.884672 0.392187 0
0.894713 0.397894 0
0.905501 0.407218 0
0.91783 0.424979 0
0 0.227466 0.0514992
0 0.238163 0.047776
0 0.24799 0.0416114
0 0.257328 0.0308232
0 0.268193 0.0153811
0.00611887 0.280262 1.5259e-05
0.105318 0.29424 0
0.183124 0.308705 0
0.247501 0.323262 0
0.303487 0.337255 0
0.353414 0.35024 0
0.401434 0.361913 0
0.447639 0.372274 0
0.49305 0.38088 0
0.539132 0.388907 0
0.582544 0.396063 0
0.622187 0.402319 0
0.656962 0.407767 0
0.688746 0.412284 0
0.717433 0.415641 0
0.74519 0.418494 0
0.771252 0.420554 0
0.794842 0.422461 0
0.816892 0.424079 0
0.834928 0.425391 0
0.850782 0.426169 0
0.864973 0.426551 0
0.877882 0.427146 0
0.890257 0.428946 0
0.901564 0.432639 0
0.911559 0.438331 0
0.92221 0.447486 0
0.934203 0.464897 0
0 0.251911 0.0497902
0 0.263432 0.0439155
0 0.274144 0.0366827
0 0.284245 0.0235447
0 0.29604 1.5259e-05
0 0.309667 0
0.0892958 0.325567 0
0.177081 0.340993 0
0.24741 0.356344 0
0.306493 0.371237 0
0.359258 0.385428 0
0.408331 0.397208 0
0.455772 0.407782 0
0.503044 0.417273 0
0.549874 0.425772 0
0.594308 0.433677 0
0.634928 0.440742 0
0.67013 0.446555 0
0.702739 0.45182 0
0.731746 0.455482 0
0.759915 0.458732 0
0.78645 0.46128 0
0.810239 0.463386 0
0.832609 0.465293 0
0.850797 0.466743 0
0.866789 0.467658 0
0.881178 0.468238 0
0.894163 0.468833 0
0.906569 0.470542 0
0.917845 0.474189 0
0.927764 0.479789 0
0.938262 0.48867 0
0.949889 0.505409 0
0 0.276341 0.0455787
0 0.288945 0.0384527
0 0.300542 0.025864
0 0.311696 0.00390631
0 0.325139 0
0 0.340627 0
0.0455024 0.357061 0
0.173236 0.373754 0
0.247959 0.389883 0
0.309331 0.404974 0
0.363973 0.419486 0
0.415213 0.432654 0
0.463813 0.443931 0
0.511925 0.453971 0
0.560662 0.463722 0
0.605707 0.472053 0
0.647272 0.479805 0
0.683284 0.486275 0
0.716289 0.491859 0
0.745953 0.496101 0
0.77435 0.49955 0
0.801251 0.502388 0
0.825437 0.504799 0
0.847959 0.506859 0
0.866453 0.508537 0
0.882597 0.509468 0
0.897063 0.510048 0
0.91014 0.510628 0
0.922576 0.512337 0
0.933867 0.515923 0
0.943679 0.521416 0
0.95404 0.530068 0
0.965393 0.546227 0
0 0.299626 0.0408789
0 0.313161 0.0320287
0 0.325841 0.0145876
0 0.338079 0
0 0.353017 0
0 0.370062 0
0.0159457 0.386892 0
0.149035 0.40351 0
0.24593 0.420356 0
0.311391 0.43682 0
0.368078 0.452186 0
0.420417 0.46598 0
0.471015 0.478416 0
0.520302 0.489189 0
0.569711 0.499397 0
0.61648 0.508904 0
0.658595 0.517037 0
0.695399 0.524132 0
0.729152 0.530312 0
0.759106 0.534783 0
0.788128 0.538766 0
0.815244 0.541787 0
0.83975 0.544457 0
0.862638 0.546792 0
0.8813 0.548577 0
0.897658 0.549676 0
0.912291 0.550286 0
0.92546 0.550835 0
0.937957 0.552529 0
0.949248 0.556054 0
0.959014 0.561456 0
0.969345 0.569924 0
0.979828 0.585245 0
0 0.321233 0.0355688
0 0.335683 0.0233768
0 0.348928 1.5259e-05
0 0.362661 0
0 0.379217 0
0 0.396582 0
0 0.413886 0
0.138842 0.431373 0
0.242374 0.448981 0
0.311574 0.466194 0
0.371527 0.482765 0
0.425498 0.497459 0
0.477119 0.510414 0
0.528115 0.522133 0
0.578592 0.533074 0
0.625971 0.542992 0
0.669459 0.552163 0
0.7066 0.559503 0
0.740978 0.566217 0
0.771466 0.571115 0
0.800763 0.575326 0
0.828397 0.57879 0
0.853101 0.581598 0
0.876265 0.584146 0
0.895216 0.586145 0
0.911711 0.587304 0
0.926497 0.588006 0
0.939818 0.588617 0
0.952392 0.59028 0
0.963699 0.593774 0
0.973419 0.599039 0
0.983886 0.60734 0
0.992447 0.621363 0
0 0.340536 0.0291905
0 0.355779 0.00827039
0 0.370382 0
0 0.385214 0
0 0.401984 0
0 0.420005 0
0 0.43801 0
0.122286 0.456184 0
0.239353 0.47483 0
0.312169 0.492897 0
0.373922 0.510094 0
0.429496 0.525582 0
0.482689 0.539452 0
0.534447 0.551629 0
0.586191 0.563333 0
0.634531 0.573922 0
0.678431 0.583413 0
0.71667 0.591623 0
0.751354 0.598581 0
0.7823 0.603891 0
0.81207 0.608515 0
0.839933 0.612146 0
0.865019 0.615351 0
0.888395 0.618067 0
0.907546 0.620249 0
0.924331 0.621622 0
0.939239 0.622431 0
0.952667 0.623087 0
0.965362 0.624796 0
0.976791 0.628229 0
0.985168 0.632746 0
0.992294 0.639384 0
0.997818 0.651591 0
0 0.358679 0.0221866
0 0.374685 0
0 0.390158 0
0 0.405692 0
0 0.42327 0
0 0.442115 0
0 0.460822 0
0.116258 0.479561 0
0.229633 0.498726 0
0.31107 0.517708 0
0.375967 0.535912 0
0.432578 0.551904 0
0.487022 0.566384 0
0.5402 0.579477 0
0.592554 0.591562 0
0.642023 0.602869 0
0.686763 0.612985 0
0.725399 0.6215 0
0.761044 0.629221 0
0.792187 0.634745 0
0.822431 0.639765 0
0.850706 0.643778 0
0.87599 0.647166 0
0.899702 0.650217 0
0.919081 0.652598 0
0.936065 0.654169 0
0.951202 0.655161 0
0.964721 0.655924 0
0.977615 0.657725 0
0.989151 0.661112 0
0.997452 0.665415 0
0.999237 0.669535 0
0.999496 0.678859 0
0 0.37583 0.0028687
0 0.393072 0
0 0.409323 0
0 0.425452 0
0 0.443702 0
0 0.463218 0
0 0.482719 0
0.0999008 0.502174 0
0.225238 0.522164 0
0.310597 0.541726 0
0.377157 0.56054 0
0.435645 0.577539 0
0.49102 0.592538 0
0.545052 0.606119 0
0.598642 0.619211 0
0.648508 0.630854 0
0.69395 0.641611 0
0.73312 0.65066 0
0.769009 0.658656 0
0.800946 0.664836 0
0.831388 0.670054 0
0.860044 0.674449 0
0.88574 0.678218 0
0.909651 0.681483 0
0.929335 0.684215 0
0.946456 0.686046 0
0.961807 0.687236 0
0.975555 0.688197 0
0.988159 0.689891 0
0.994858 0.691356 0
0.998108 0.693111 0
0.999405 0.696544 0
0.999512 0.704997 0
0 0.392401 0
0 0.410788 0
0 0.428153 0
0 0.444892 0
0 0.463783 0
0 0.483955 0
0 0.504082 0
0.0851148 0.524041 0
0.213352 0.544686 0
0.309545 0.56524 0
0.377737 0.584649 0
0.437247 0.602106 0
0.494331 0.618036 0
0.549416 0.632212 0
0.60354 0.645701 0
0.654597 0.658351 0
0.70042 0.669444 0
0.74023 0.679072 0
0.776654 0.687587 0
0.808789 0.693996 0
0.839948 0.699855 0
0.868818 0.704463 0
0.894865 0.708583 0
0.919188 0.712261 0
0.939055 0.71519 0
0.956451 0.717327 0
0.971771 0.718761 0
0.984817 0.719631 0
0.996139 0.720897 0
0.999512 0.720958 0
0.999512 0.721096 0
0.999512 0.723369 0
0.999512 0.730831 0
0 0.408545 0
0 0.428305 0
0 0.446113 0
0 0.463462 0
0 0.483009 0
0 0.503899 0
0 0.524788 0
0.0577707 0.545296 0
0.195148 0.566491 0
0.307424 0.587594 0
0.377722 0.607904 0
0.438758 0.626047 0
0.496712 0.642405 0
0.55314 0.657374 0
0.607996 0.671489 0
0.659525 0.684489 0
0.706401 0.696513 0
0.746548 0.706416 0
0.783581 0.71548 0
0.816114 0.722316 0
0.847486 0.72842 0
0.876997 0.733623 0
0.903212 0.737942 0
0.927825 0.741909 0
0.948074 0.745266 0
0.965713 0.747646 0
0.981216 0.74931 0
0.993805 0.750225 0
0.998642 0.749432 0
0.999496 0.748119 0
0.999512 0.748058 0
0.999512 0.749874 0
0.999512 0.756039 0
0 0.423377 0
0 0.443915 0
0 0.462394 0
0 0.480262 0
0 0.500359 0
0 0.521782 0
0 0.54316 0
0.0379034 0.564248 0
0.183505 0.58613 0
0.305974 0.607813 0
0.377584 0.628595 0
0.439933 0.647364 0
0.499153 0.664393 0
0.556222 0.679759 0
0.612039 0.69453 0
0.664164 0.70808 0
0.711345 0.720378 0
0.75227 0.730983 0
0.789624 0.740337 0
0.822599 0.747585 0
0.854307 0.75407 0
0.884016 0.759472 0
0.910765 0.764309 0
0.935576 0.76849 0
0.956024 0.772061 0
0.974029 0.774838 0
0.987274 0.775998 0
0.997681 0.776318 0
0.999496 0.774411 0
0.999496 0.772747 0
0.999512 0.772396 0
0.999512 0.773693 0
0.999512 0.778866 0
0 0.437415 0
0 0.458579 0
0 0.477577 0
0 0.495933 0
0 0.516548 0
0 0.538476 0
0 0.560342 0
0.0260624 0.581872 0
0.161776 0.60415 0
0.303914 0.626459 0
0.377523 0.647883 0
0.440742 0.667048 0
0.500999 0.684596 0
0.559106 0.700618 0
0.615366 0.715694 0
0.668376 0.729885 0
0.715984 0.742611 0
0.757198 0.753536 0
0.795178 0.763455 0
0.828367 0.770932 0
0.860548 0.777844 0
0.890562 0.783566 0
0.917525 0.788602 0
0.942809 0.793271 0
0.963424 0.79704 0
0.981384 0.799954 0
0.994339 0.801251 0
0.999512 0.800214 0
0.999481 0.797436 0
0.999512 0.795987 0
0.999512 0.795453 0
0.999512 0.796231 0
0.999512 0.800381 0
0 0.448569 0
0 0.470329 0
0 0.489662 0
0 0.508339 0
0 0.52929 0
0 0.551598 0
0 0.573907 0
0.0258335 0.59585 0
0.160006 0.618463 0
0.301823 0.641123 0
0.377997 0.66302 0
0.442237 0.682673 0
0.502983 0.700542 0
0.561654 0.716945 0
0.618387 0.732464 0
0.671702 0.746914 0
0.719905 0.760143 0
0.761318 0.771313 0
0.799527 0.781521 0
0.833066 0.789364 0
0.865446 0.796475 0
0.895888 0.802579 0
0.923049 0.807843 0
0.948531 0.812696 0
0.969482 0.816861 0
0.986557 0.819623 0
0.997772 0.820462 0
0.999512 0.818372 0
0.999496 0.816052 0
0.999512 0.814649 0
0.999512 0.813993 0
0.999512 0.814496 0
0.999512 0.817899 0
0 0.45832 0
0 0.480583 0
0 0.500221 0
0 0.519142 0
0 0.540368 0
0 0.562936 0
0 0.585504 0
0.0248569 0.607752 0
0.158556 0.630777 0
0.300237 0.653758 0
0.378027 0.67599 0
0.443122 0.696025 0
0.504601 0.714275 0
0.563622 0.730953 0
0.620752 0.746838 0
0.674372 0.761608 0
0.722759 0.775051 0
0.764492 0.786633 0
0.802869 0.797055 0
0.836805 0.805219 0
0.869429 0.812634 0
0.900008 0.818952 0
0.927504 0.824567 0
0.953231 0.829664 0
0.974548 0.834073 0
0.988693 0.83624 0
0.99942 0.837079 0
0.999512 0.834546 0
0.999512 0.832395 0
0.999512 0.831022 0
0.999512 0.830228 0
0.999512 0.830442 0
0.999512 0.833127 0
0 0.467155 0
0 0.489876 0
0 0.509743 0
0 0.528862 0
0 0.550271 0
0 0.573022 0
0 0.595804 0
0.0241093 0.618265 0
0.157153 0.641535 0
0.298878 0.664881 0
0.378088 0.687434 0
0.443717 0.707698 0
0.505791 0.726299 0
0.56524 0.743267 0
0.622568 0.75935 0
0.676478 0.774487 0
0.725002 0.788159 0
0.76701 0.799985 0
0.805539 0.810727 0
0.839628 0.819089 0
0.872648 0.826856 0
0.903365 0.833402 0
0.931014 0.839277 0
0.957031 0.844694 0
0.978729 0.849378 0
0.99202 0.851423 0
0.999512 0.851606 0
0.999512 0.849256 0
0.999512 0.847196 0
0.999512 0.845899 0
0.999512 0.84506 0
0.999512 0.844968 0
0.999512 0.846937 0
0 0.475471 0
0 0.498665 0
0 0.518685 0
0 0.537911 0
0 0.559426 0
0 0.582284 0
0 0.605173 0
0.0235904 0.627802 0
0.156329 0.65124 0
