HypnoCore/Renderer/Effects/Library/BundledLUTs/Kodak_2383_D60_Rec.709_2.4_IF_MY_ANY_LUT_IS_HELPFUL_PLEASE_ADD_ME_ON_IG__ashikulislam3251.cube
TITLE "Generated by Resolve"
LUT_3D_SIZE 9
0.000946059 0.00927749 0.0165713
0.0605173 0.0223087 0.0183871
0.162737 0.033402 0.00933852
0.287526 0.0308385 0
0.423224 0.00630198 0
0.528542 0 0
0.615213 0 0
0.677028 0 0
0.724514 0 0
0 0.0569162 0.0325933
0.0715648 0.074815 0.0318456
0.200855 0.0957046 0.0178531
0.347784 0.110918 0
0.495918 0.119005 0
0.604746 0.115282 0
0.688121 0.103761 0
0.743114 0.0937667 0
0.789105 0.125795 0
0 0.135302 0.0472267
0.0475013 0.16228 0.0367132
0.230854 0.198123 1.5259e-05
0.40174 0.231891 0
0.562371 0.253468 0
0.677852 0.263279 0
0.763699 0.265064 0
0.818418 0.26656 0
0.863935 0.302327 0
0 0.227466 0.0514992
0 0.268193 0.0153811
0.247501 0.323262 0
0.447639 0.372274 0
0.622187 0.402319 0
0.74519 0.418494 0
0.834928 0.425391 0
0.890257 0.428946 0
0.934203 0.464897 0
0 0.321233 0.0355688
0 0.379217 0
0.242374 0.448981 0
0.477119 0.510414 0
0.669459 0.552163 0
0.800763 0.575326 0
0.895216 0.586145 0
0.952392 0.59028 0
0.992447 0.621363 0
0 0.392401 0
0 0.463783 0
0.213352 0.544686 0
0.494331 0.618036 0
0.70042 0.669444 0
0.839948 0.699855 0
0.939055 0.71519 0
0.996139 0.720897 0
0.999512 0.730831 0
0 0.448569 0
0 0.52929 0
0.160006 0.618463 0
0.502983 0.700542 0
0.719905 0.760143 0
0.865446 0.796475 0
0.969482 0.816861 0
0.999496 0.816052 0
0.999512 0.817899 0
0 0.484108 0
0 0.568734 0
0.157031 0.660716 0
0.508659 0.746822 0
0.728542 0.810224 0
0.877165 0.850645 0
0.985016 0.875212 0
0.999512 0.872984 0
0.999512 0.871275 0
0 0.555825 0.106035
0 0.626505 0.00790417
0.271427 0.704204 0
0.537194 0.776776 0
0.730007 0.831449 0
0.868086 0.869047 0
0.972778 0.894377 0
0.999512 0.897246 0
0.999512 0.891035 0
0 0.0121462 0.0675975
0.0603342 0.0244907 0.074403
0.167163 0.0348211 0.0773632
0.294652 0.0260166 0.0743572
0.429816 0 0.0681773
0.537728 0 0.066392
0.625101 0 0.0620584
0.686656 0 0.0574197
0.733089 0 0.0682536
0 0.0676127 0.0963149
0.0644541 0.0850385 0.0988785
0.204532 0.106111 0.100862
0.353491 0.116442 0.0948653
0.496605 0.107195 0.0807965
0.600946 0.0787213 0.0589761
0.681849 0.0160678 0.0315557
0.738323 0 0.0235599
0.779553 0.0307012 0.0256962
0 0.153368 0.12166
0 0.18056 0.120653
0.228534 0.215457 0.117647
0.401785 0.240284 0.10573
0.558526 0.249317 0.080766
0.670634 0.248341 0.0447242
0.754406 0.241642 0.00521859
0.807691 0.237537 0
0.85127 0.275364 0
0 0.253178 0.142336
0 0.294209 0.137835
0.230411 0.340597 0.121614
0.438102 0.378271 0.0925307
0.611154 0.398505 0.0384833
0.73344 0.408896 0
0.824842 0.414359 0
0.880171 0.41648 0
0.921675 0.45185 0
0 0.35201 0.152987
0 0.4056 0.142626
0.181125 0.462165 0.104646
0.456992 0.512963 0.0293278
0.654627 0.55108 0
0.789334 0.573373 0
0.885679 0.583322 0
0.943374 0.586862 0
0.982208 0.616495 0
0 0.423926 0.158953
0 0.48658 0.140612
0.123857 0.55317 0.0727398
0.466575 0.618692 0
0.682551 0.670054 0
0.826474 0.700221 0
0.927962 0.715221 0
0.988464 0.721294 0
0.999496 0.732586 0
0 0.47834 0.16614
0 0.548226 0.141451
0.0644846 0.621988 0.0409094
0.468132 0.699351 0
0.697154 0.758953 0
0.847883 0.795438 0
0.954787 0.815946 0
0.999496 0.81912 0
0.999512 0.819028 0
0 0.513054 0.188296
0 0.58616 0.165621
0.0438392 0.661143 0.0823072
0.463645 0.738918 0
0.697932 0.802045 0
0.851667 0.842344 0
0.961685 0.866621 0
0.999512 0.870726 0
0.999512 0.867063 0
0 0.593851 0.329763
0 0.662776 0.323995
0.120317 0.724956 0.302327
0.485771 0.784756 0.282399
0.687587 0.828748 0.258366
0.825879 0.858 0.234668
0.928664 0.876707 0.205798
0.995865 0.887449 0.181003
0.999512 0.882002 0.172229
0 0 0.152193
0.0589609 0.0131533 0.166934
0.170748 0.0237888 0.178851
0.301488 0.002533 0.185351
0.441306 0 0.19266
0.550134 0 0.200534
0.637903 0 0.206424
0.699443 0 0.210498
0.745068 0 0.224994
0 0.069688 0.198108
0.0445411 0.0935531 0.206622
0.203265 0.113649 0.219867
0.358221 0.123644 0.225971
0.504112 0.113542 0.225711
0.610147 0.0860609 0.222431
0.691493 0.0277409 0.21886
0.747021 0 0.220233
0.787793 0.0451057 0.2318
0 0.1729 0.24126
0 0.20119 0.248676
0.216876 0.234165 0.255283
0.401694 0.258473 0.259541
0.563333 0.267262 0.257481
0.677333 0.265797 0.252842
0.761227 0.257771 0.247379
0.813306 0.251575 0.244617
0.856092 0.290669 0.257816
0 0.279393 0.273762
0 0.321798 0.282872
0.19765 0.365789 0.281163
0.430655 0.401892 0.282063
0.610864 0.420951 0.276921
0.734203 0.428672 0.269612
0.82266 0.428397 0.261967
0.876066 0.426459 0.257694
0.916457 0.462913 0.26894
0 0.383307 0.297887
0 0.436561 0.305394
0.0910964 0.491051 0.297078
0.438895 0.539956 0.292073
0.643168 0.570916 0.281422
0.776364 0.585519 0.269642
0.870481 0.589624 0.258289
0.927123 0.59028 0.253376
0.96463 0.620249 0.263188
0 0.457267 0.314611
0 0.520287 0.320378
0.0263676 0.584817 0.307851
0.437049 0.644099 0.29575
0.660273 0.683833 0.279454
0.803052 0.705501 0.262867
0.902556 0.714336 0.248707
0.962448 0.717464 0.238865
0.996323 0.73785 0.250462
0 0.512932 0.3299
0 0.583413 0.335241
0 0.654826 0.318944
0.427756 0.721614 0.301457
0.666972 0.768643 0.280156
0.81709 0.796002 0.26038
0.922103 0.809949 0.236774
0.985214 0.815808 0.219867
0.999512 0.819852 0.22266
0 0.547707 0.357214
0 0.621225 0.363302
0 0.694575 0.347494
0.418662 0.763989 0.330724
0.665248 0.814572 0.310826
0.819547 0.84567 0.290959
0.928191 0.863142 0.272358
0.994675 0.872206 0.255863
0.999512 0.869139 0.252125
0 0.622583 0.476692
0 0.691859 0.482994
0.0193637 0.752667 0.47454
0.44683 0.810864 0.471122
0.665309 0.854841 0.467796
0.809689 0.884047 0.462242
0.915831 0.902693 0.455222
0.986206 0.91368 0.449607
0.999512 0.911437 0.446586
0 0 0.248295
0.0587625 0 0.265492
0.177203 0 0.284245
0.313085 0 0.29836
0.455024 0 0.31191
0.563409 0 0.322621
0.650645 0 0.330968
0.711421 0 0.336858
0.756283 0 0.352239
0 0.0504616 0.298161
0.00828565 0.0959793 0.316579
0.201984 0.115114 0.33756
0.362768 0.124041 0.35079
0.510704 0.112581 0.356695
0.617517 0.0800946 0.358343
0.699321 0.0197757 0.358602
0.755093 0 0.362203
0.795056 0.0491035 0.375494
0 0.178744 0.35581
0 0.21474 0.374319
0.202609 0.249073 0.384268
0.400412 0.272663 0.396658
0.566323 0.28098 0.40148
0.681971 0.279667 0.402502
0.766506 0.272053 0.401297
0.818692 0.265705 0.400687
0.861021 0.306538 0.415244
0 0.299382 0.399771
0 0.343893 0.417441
0.114839 0.386984 0.42005
0.421012 0.422171 0.431617
0.608652 0.440986 0.435523
0.734508 0.448493 0.435401
0.823911 0.448066 0.433021
0.878035 0.44593 0.431449
0.917998 0.482643 0.443168
0 0.40824 0.431495
0 0.462104 0.44799
0.0278325 0.51667 0.448112
0.41915 0.564523 0.454307
0.634684 0.594858 0.456153
0.77142 0.609171 0.454383
0.867308 0.613153 0.450568
0.925109 0.613245 0.448783
0.962097 0.642786 0.458335
0 0.484092 0.451301
0 0.548745 0.469383
0 0.613108 0.468162
0.407034 0.670481 0.46891
0.646052 0.709743 0.468772
0.793622 0.731151 0.465415
0.895384 0.739864 0.460624
0.957092 0.742733 0.458335
0.991989 0.763134 0.466484
0 0.541665 0.469932
0 0.612772 0.487434
0 0.684077 0.484855
0.388281 0.748318 0.481376
0.648386 0.795178 0.47953
0.804028 0.822385 0.474983
0.911818 0.836271 0.469261
0.977066 0.842161 0.466056
0.999512 0.849332 0.468971
0 0.57554 0.494728
0 0.649577 0.512306
0 0.72311 0.509789
0.373434 0.789776 0.504936
0.644419 0.840024 0.503471
0.804852 0.870939 0.498817
0.916152 0.888502 0.492622
0.984527 0.897749 0.488655
0.999512 0.897948 0.487495
0 0.643626 0.590646
0 0.713848 0.605081
0 0.774212 0.601419
0.413153 0.830701 0.602686
0.646815 0.874189 0.606744
0.796078 0.903151 0.60705
0.904738 0.921782 0.604578
0.976593 0.932891 0.601892
0.999512 0.933227 0.599725
0 0 0.333883
0.048661 0 0.350698
0.184283 0 0.374685
0.325429 0 0.392782
0.46714 0 0.408042
0.575265 0 0.420157
0.661997 0 0.42887
0.722728 0 0.436057
0.767178 0 0.451377
0 0 0.380179
0 0.0881056 0.406821
0.201282 0.110018 0.431968
0.366339 0.117128 0.449943
0.515419 0.102129 0.459464
0.623178 0.0582589 0.463935
0.706691 0 0.467216
0.763516 0 0.472129
0.801587 0.0389563 0.485206
0 0.170733 0.446662
0 0.216999 0.471778
0.188617 0.258274 0.485817
0.39852 0.28101 0.504234
0.568002 0.28896 0.513802
0.684749 0.287205 0.517754
0.769909 0.279393 0.518563
0.823026 0.273594 0.519249
0.864897 0.315724 0.535012
0 0.307225 0.499565
0 0.355978 0.52462
0.0781262 0.40145 0.530526
0.411643 0.435782 0.546868
0.605798 0.454597 0.556298
0.733654 0.461906 0.559747
0.824186 0.461204 0.559792
0.879332 0.459098 0.559823
0.919097 0.49659 0.572427
0 0.422309 0.536721
0 0.47892 0.561913
0 0.534432 0.566705
0.399176 0.581308 0.577188
0.625834 0.6112 0.585336
0.76582 0.625223 0.587884
0.8636 0.629053 0.587335
0.922621 0.629114 0.58706
0.959945 0.658793 0.596841
0 0.50312 0.563653
0 0.566644 0.585885
0 0.63267 0.591928
0.376959 0.688807 0.596811
0.632761 0.727581 0.603952
0.784573 0.748775 0.605798
0.888701 0.757504 0.60499
0.95169 0.76022 0.60415
0.98735 0.780362 0.611673
0 0.561028 0.582589
0 0.632258 0.605951
0 0.704524 0.610849
0.345998 0.767208 0.611597
0.631403 0.813748 0.618173
0.79234 0.84094 0.619699
0.902632 0.854963 0.618616
0.969299 0.86067 0.617182
0.999496 0.869993 0.620966
0 0.594446 0.604501
0 0.668849 0.627802
0 0.743175 0.632914
0.322805 0.80798 0.631708
0.625711 0.858244 0.638758
0.79176 0.88922 0.640146
0.905898 0.906859 0.638453
0.975998 0.916121 0.636744
0.999512 0.918959 0.636942
0 0.658076 0.682994
0 0.728374 0.699367
0 0.789944 0.701747
0.380331 0.845273 0.705043
0.632044 0.888685 0.714199
0.785321 0.917571 0.717952
0.895644 0.936187 0.718273
0.969223 0.947478 0.7178
0.999512 0.948959 0.715145
0 0 0.403357
0.0220188 0 0.419364
0.186938 0 0.446815
0.333867 0 0.468147
0.477211 0 0.486046
0.585336 0 0.499336
0.67245 0 0.509621
0.733394 0 0.51751
0.777157 0 0.532662
0 0 0.452766
0 0.0715801 0.478523
0.200153 0.100832 0.508049
0.368475 0.106004 0.530266
0.518715 0.080415 0.542901
0.628336 0.0324254 0.550408
0.714473 0 0.556405
0.771847 0 0.562097
0.807843 0.00666819 0.574319
0 0.155062 0.51902
0 0.211948 0.549554
0.171527 0.262943 0.567452
0.395727 0.285023 0.590921
0.568109 0.292393 0.604013
0.686397 0.290227 0.610666
0.772473 0.282063 0.613077
0.826276 0.275975 0.61442
0.86836 0.319951 0.630259
0 0.309392 0.580423
0 0.361273 0.610422
0.0458534 0.409781 0.618814
0.401648 0.444083 0.639078
0.60145 0.462791 0.652476
0.731731 0.469871 0.658854
0.823606 0.46894 0.660624
0.880064 0.467002 0.661723
0.920012 0.504952 0.673961
0 0.431174 0.623484
0 0.48687 0.650752
0 0.545327 0.66099
0.380514 0.591684 0.673854
0.617136 0.621485 0.686656
0.760571 0.635416 0.692561
0.860105 0.639139 0.693965
0.920577 0.639155 0.694697
0.958419 0.668833 0.703868
0 0.513375 0.651423
0 0.579583 0.67982
0 0.645777 0.690044
0.347173 0.700725 0.696696
0.619699 0.739452 0.709056
0.776135 0.760647 0.714794
0.882475 0.769314 0.716152
0.947066 0.771908 0.716381
0.983764 0.792065 0.722972
0 0.573434 0.671031
0 0.645106 0.698924
0 0.718425 0.709697
0.300877 0.780148 0.712535
0.61529 0.826612 0.72459
0.781689 0.853864 0.730358
0.894606 0.867964 0.731868
0.962921 0.873549 0.731624
0.998611 0.884428 0.73579
0 0.607233 0.690288
0 0.68159 0.717845
0 0.757046 0.728252
0.26537 0.821012 0.729381
0.608103 0.87129 0.741527
0.780148 0.902419 0.747311
0.897063 0.920211 0.748745
0.969055 0.929549 0.748669
0.999512 0.934325 0.749477
0 0.668452 0.751858
0 0.738827 0.771679
0 0.800671 0.777234
0.350317 0.855253 0.782025
0.618173 0.898741 0.794369
0.775662 0.927733 0.801022
0.888212 0.946471 0.80354
0.963485 0.958007 0.804562
0.999512 0.961227 0.802915
0 0 0.462287
0 0 0.47921
0.187137 0 0.509483
0.340139 0 0.534356
0.485878 0 0.554437
0.595392 0 0.569192
0.682277 0 0.579705
0.743511 0 0.588129
0.787976 0 0.603876
0 0 0.51574
0 0.0395819 0.539574
0.198932 0.0876783 0.572992
0.369894 0.0896315 0.598642
0.522179 0.0566415 0.614679
0.633387 0 0.624537
0.722316 0 0.633188
0.77998 0 0.639139
0.815595 0 0.651118
0 0.130694 0.576333
0 0.203677 0.613916
0.145098 0.265583 0.63563
0.392142 0.287083 0.663218
0.567529 0.294011 0.679683
0.687358 0.291447 0.688594
0.774716 0.282918 0.692638
0.829236 0.276143 0.694545
0.871839 0.322042 0.709987
0 0.307729 0.647257
0 0.359945 0.678874
0.0123598 0.41384 0.691814
0.391852 0.449027 0.714992
0.596704 0.467491 0.732036
0.729198 0.474434 0.740826
0.822797 0.473381 0.744335
0.880659 0.471382 0.74612
0.920989 0.509544 0.75758
0 0.432807 0.692058
0 0.49247 0.724224
0 0.551614 0.738628
0.361212 0.597681 0.752773
0.608682 0.627512 0.769863
0.755001 0.641535 0.778546
0.856596 0.645167 0.781765
0.918608 0.644938 0.783246
0.957214 0.674464 0.79144
0 0.519554 0.72285
0 0.585199 0.753841
0 0.65362 0.769635
0.31722 0.707973 0.777493
0.60795 0.7467 0.794507
0.768109 0.768032 0.80322
0.876982 0.77673 0.806516
0.943343 0.77911 0.807645
0.98114 0.799283 0.813153
0 0.582574 0.743664
0 0.653284 0.773907
0 0.727184 0.789212
0.243977 0.788617 0.793729
0.600427 0.835126 0.810559
0.771527 0.862486 0.819425
0.887404 0.876692 0.823133
0.957763 0.882216 0.824048
0.995834 0.893645 0.82739
0 0.615763 0.759854
0 0.690684 0.790265
0 0.766247 0.804334
0.174075 0.830014 0.807202
0.592218 0.880385 0.823651
0.76936 0.911696 0.832685
0.889326 0.929747 0.836957
0.963256 0.939162 0.838346
0.999512 0.945266 0.839261
0 0.674739 0.804852
0 0.745205 0.826719
0 0.807416 0.834775
0.319753 0.861708 0.840894
0.605325 0.905379 0.855848
0.766567 0.934569 0.864713
0.881712 0.953582 0.869429
0.95877 0.965438 0.871626
0.999512 0.970581 0.871397
0 0 0.513039
0 0 0.532387
0.187869 0 0.562768
0.347097 0 0.591119
0.494682 0 0.61239
0.606592 0 0.628946
0.695018 0 0.640848
0.755352 0 0.64918
0.800076 0 0.666102
0 0 0.566827
0 0.0132906 0.590555
0.196674 0.090486 0.626078
0.372427 0.0928359 0.654551
0.527077 0.0608835 0.673411
0.639506 0.00462348 0.685161
0.728908 0 0.694697
0.787366 0 0.701274
0.823087 0 0.713375
0 0.117571 0.62388
0 0.201801 0.66392
0.127535 0.272602 0.689021
0.389181 0.293782 0.719234
0.567803 0.301274 0.738842
0.689006 0.29865 0.749813
0.77734 0.289464 0.755032
0.833799 0.28307 0.75845
0.8766 0.329946 0.773373
0 0.304143 0.696254
0 0.360754 0.729717
0.00221256 0.419181 0.74699
0.383001 0.454124 0.771603
0.592248 0.472602 0.791699
0.727001 0.479896 0.803052
0.822217 0.479042 0.808347
0.881376 0.475822 0.810651
0.922301 0.514305 0.821714
0 0.433585 0.743786
0 0.495415 0.777951
0 0.555093 0.79469
0.345541 0.601541 0.810361
0.6009 0.630976 0.830549
0.74992 0.645136 0.841917
0.853513 0.649058 0.847227
0.916899 0.64799 0.849515
0.956619 0.677317 0.857176
0 0.52343 0.775692
0 0.588586 0.807065
0 0.657115 0.826139
0.289677 0.711757 0.835782
0.597238 0.750149 0.856077
0.760784 0.771572 0.867613
0.871931 0.780545 0.873121
0.940108 0.782574 0.875441
0.979095 0.802167 0.879927
0 0.586984 0.795743
0 0.658335 0.827878
0 0.731731 0.845853
0.164294 0.792782 0.851637
0.587381 0.8392 0.872023
0.76257 0.866712 0.883772
0.880949 0.881209 0.889677
0.953567 0.886778 0.892149
0.992752 0.897566 0.894072
0 0.620844 0.80914
0 0.695964 0.840391
0 0.771542 0.857908
0.0925307 0.834913 0.862409
0.578317 0.885298 0.881514
0.759991 0.91693 0.893385
0.882353 0.935195 0.899641
0.958663 0.944793 0.902815
0.999512 0.951751 0.904265
0 0.677989 0.838682
0 0.749325 0.863233
0 0.811093 0.873091
0.289113 0.86508 0.879759
0.593622 0.908858 0.896819
0.758328 0.938384 0.907576
0.875547 0.957916 0.914
0.95465 0.970062 0.917632
0.999512 0.975937 0.918486
0 0 0.587274
0 0.013611 0.609171
0.200107 0.0771344 0.644862
0.36936 0.0769818 0.674388
0.519234 0.0301518 0.694469
0.631479 0 0.708614
0.721904 0 0.71986
0.783352 0 0.727962
0.820874 0 0.74052
0 0.0356756 0.626978
0 0.155932 0.668605
0.16022 0.231403 0.699702
0.385138 0.248402 0.730663
0.553429 0.252552 0.751644
0.671717 0.246571 0.764233
0.759976 0.232883 0.771099
0.817792 0.222293 0.775692
0.862989 0.273426 0.791531
0 0.22179 0.690822
0 0.289158 0.727474
0.048188 0.353902 0.747707
0.385718 0.383093 0.777447
0.576898 0.396521 0.798932
0.70457 0.399542 0.811597
0.797635 0.395529 0.818204
0.857786 0.391363 0.822156
0.901595 0.431205 0.835019
0 0.354971 0.743084
0 0.41236 0.776608
0 0.469322 0.794141
0.36907 0.508721 0.816938
0.589227 0.5299 0.838407
0.729076 0.539681 0.851392
0.829023 0.540978 0.858366
0.892164 0.537911 0.861708
0.934844 0.571832 0.87129
0 0.458503 0.77911
0 0.520638 0.813184
0 0.582193 0.83267
0.326436 0.628763 0.847532
0.591073 0.658595 0.869123
0.743999 0.674189 0.882231
0.851514 0.679835 0.889403
0.918761 0.678676 0.892805
0.960662 0.704036 0.899214
0 0.536782 0.806546
0 0.60325 0.839841
0 0.670542 0.85919
0.262898 0.723781 0.868696
0.584833 0.761944 0.890593
0.750881 0.783749 0.903838
0.864927 0.793576 0.911131
0.936873 0.795941 0.9149
0.979507 0.813794 0.91928
0 0.595743 0.826078
0 0.665766 0.858198
0 0.737957 0.877073
0.108003 0.796597 0.882933
0.575036 0.842466 0.904768
0.751247 0.869718 0.918181
0.871611 0.884123 0.925643
0.94818 0.890471 0.929839
0.992081 0.901778 0.932906
0 0.628351 0.835782
0 0.702068 0.866804
0 0.775921 0.886198
0.0857099 0.837125 0.891951
0.564889 0.886275 0.91223
0.747982 0.917708 0.925765
0.872374 0.936294 0.933501
0.952865 0.946471 0.938094
0.997284 0.953094 0.939483
0 0.686748 0.861143
0 0.753368 0.884016
0 0.813458 0.894057
0.255039 0.865385 0.900313
0.577813 0.908919 0.918563
0.745052 0.93875 0.930663
0.865202 0.958831 0.93843
0.947906 0.971557 0.94313
0.999481 0.978805 0.945388
