HypnoCore/Renderer/Effects/Library/BundledLUTs/Kodak_2383_D60_Rec.709_2.4_IF_MY_ANY_LUT_IS_HELPFUL_PLEASE_ADD_ME_ON_IG__ashikulislam3251.cube
TITLE "Generated by Resolve"
LUT_3D_SIZE 5
0.000946059 0.00927749 0.0165713
0.162737 0.033402 0.00933852
0.423224 0.00630198 0
0.615213 0 0
0.724514 0 0
0 0.135302 0.0472267
0.230854 0.198123 1.5259e-05
0.562371 0.253468 0
0.763699 0.265064 0
0.863935 0.302327 0
0 0.321233 0.0355688
0.242374 0.448981 0
0.669459 0.552163 0
0.895216 0.586145 0
0.992447 0.621363 0
0 0.448569 0
0.160006 0.618463 0
0.719905 0.760143 0
0.969482 0.816861 0
0.999512 0.817899 0
0 0.555825 0.106035
0.271427 0.704204 0
0.730007 0.831449 0
0.972778 0.894377 0
0.999512 0.891035 0
0 0 0.152193
0.170748 0.0237888 0.178851
0.441306 0 0.19266
0.637903 0 0.206424
0.745068 0 0.224994
0 0.1729 0.24126
0.216876 0.234165 0.255283
0.563333 0.267262 0.257481
0.761227 0.257771 0.247379
0.856092 0.290669 0.257816
0 0.383307 0.297887
0.0910964 0.491051 0.297078
0.643168 0.570916 0.281422
0.870481 0.589624 0.258289
0.96463 0.620249 0.263188
0 0.512932 0.3299
0 0.654826 0.318944
0.666972 0.768643 0.280156
0.922103 0.809949 0.236774
0.999512 0.819852 0.22266
0 0.622583 0.476692
0.0193637 0.752667 0.47454
0.665309 0.854841 0.467796
0.915831 0.902693 0.455222
0.999512 0.911437 0.446586
0 0 0.333883
0.184283 0 0.374685
0.46714 0 0.408042
0.661997 0 0.42887
0.767178 0 0.451377
0 0.170733 0.446662
0.188617 0.258274 0.485817
0.568002 0.28896 0.513802
0.769909 0.279393 0.518563
0.864897 0.315724 0.535012
0 0.422309 0.536721
0 0.534432 0.566705
0.625834 0.6112 0.585336
0.8636 0.629053 0.587335
0.959945 0.658793 0.596841
0 0.561028 0.582589
0 0.704524 0.610849
0.631403 0.813748 0.618173
0.902632 0.854963 0.618616
0.999496 0.869993 0.620966
0 0.658076 0.682994
0 0.789944 0.701747
0.632044 0.888685 0.714199
0.895644 0.936187 0.718273
0.999512 0.948959 0.715145
0 0 0.462287
0.187137 0 0.509483
0.485878 0 0.554437
0.682277 0 0.579705
0.787976 0 0.603876
0 0.130694 0.576333
0.145098 0.265583 0.63563
0.567529 0.294011 0.679683
0.774716 0.282918 0.692638
0.871839 0.322042 0.709987
0 0.432807 0.692058
0 0.551614 0.738628
0.608682 0.627512 0.769863
0.856596 0.645167 0.781765
0.957214 0.674464 0.79144
0 0.582574 0.743664
0 0.727184 0.789212
0.600427 0.835126 0.810559
0.887404 0.876692 0.823133
0.995834 0.893645 0.82739
0 0.674739 0.804852
0 0.807416 0.834775
0.605325 0.905379 0.855848
0.881712 0.953582 0.869429
0.999512 0.970581 0.871397
0 0 0.587274
0.200107 0.0771344 0.644862
0.519234 0.0301518 0.694469
0.721904 0 0.71986
0.820874 0 0.74052
0 0.22179 0.690822
0.048188 0.353902 0.747707
0.576898 0.396521 0.798932
0.797635 0.395529 0.818204
0.901595 0.431205 0.835019
0 0.458503 0.77911
0 0.582193 0.83267
0.591073 0.658595 0.869123
0.851514 0.679835 0.889403
0.960662 0.704036 0.899214
0 0.595743 0.826078
0 0.737957 0.877073
0.575036 0.842466 0.904768
0.871611 0.884123 0.925643
0.992081 0.901778 0.932906
0 0.686748 0.861143
0 0.813458 0.894057
0.577813 0.908919 0.918563
0.865202 0.958831 0.93843
0.999481 0.978805 0.945388
